!!!!SEGMENT: pl-sa--86-a-ii-26--002_pych-leopold--missa-brevis-in-d-gloria.krn
!!!cenid: 17xx:368
!!!COM: Pych, Leopold
!!!COM-rismid: pe30018039
!!!CDT: <1758->1774
!!!CNT:
!!!OPR: Missa brevis in D
!!!OTL: Gloria
!!!OMV: 002
!!!PDT:
!!!AGN: Sacred; Mass
!!!SMS-siglum: PL-SA
!!!SMS-shelfmark: 86/A II 26
!!!SMS-shelfwork: 001-002 M
!!!NIFC-rismid: 1001035464
!!!URL-scan: http://bc.bdsandomierz.pl/dlibra/publication/1364/edition/1332/content
!!!ONB-nifc: UWAGA: części Mszy: Kyrie, Gloria, Credo, Sanctus, Agnus, Dona
**kern	**fba	**dynam	**kern	**dynam	**kern	**dynam	**kern	**text	**kern	**text	**kern	**kern
*part7	*	*part7	*part6	*part6	*part5	*part5	*part4	*part4	*part3	*part3	*part2	*part1
*	*	*	*group3	*	*group3	*	*group2	*	*group2	*	*group1	*group1
*staff7	*	*	*staff6	*	*staff5	*	*staff4	*staff4	*staff3	*staff3	*staff2	*staff1
*Iorgan	*	*	*Ivioln	*	*Ivioln	*	*Iempty	*	*Ivox	*	*Iempty	*Iempty
*I"Organo	*	*	*I"Violino 2do	*	*I"Violino 1mo	*	*I"Baſso	*	*I"Canto	*	*I"Clarino 2do ex D	*I"Clarino 1mo ex D
*I'org	*	*	*I'vl 2	*	*I'vl 1	*	*I'B	*	*I'C	*	*I'clno 2	*I'clno 1
*clefF4	*	*	*clefG2	*	*clefG2	*	*clefF4	*	*clefC1	*	*clefG2	*clefG2
*ITrd0c0	*	*	*	*	*	*	*	*	*	*	*ITrd6c10	*ITrd6c10
*k[c#f#]	*	*	*k[c#f#]	*	*k[c#f#]	*	*k[c#f#]	*	*k[c#f#]	*	*k[f#c#]	*k[f#c#]
*D:	*	*	*D:	*	*D:	*	*D:	*	*D:	*	*D:	*D:
*M4/4	*	*	*M4/4	*	*M4/4	*	*M4/4	*	*M4/4	*	*M4/4	*M4/4
*met(c)	*	*	*met(c)	*	*met(c)	*	*met(c)	*	*met(c)	*	*met(c)	*met(c)
=1	=1	=1	=1	=1	=1	=1	=1	=1	=1	=1	=1	=1
!	!	!	!LO:TX:a:t=P:problem:mixed beam	!	!LO:TX:a:t=P:problem:mixed beam	!	!	!	!LO:TX:a:t=P:problem:krzyżyki cc# f#	!	!LO:TX:a:t=P:problem:mixed beam	!LO:TX:a:t=P:problem:mixed beam
!LO:TX:a:t=Allo	!	!	!LO:TX:a:t=P:problem:krzyżyki cc# f#	!	!LO:TX:a:t=P:problem:krzyżyki cc# f#	!	!	!	!	!	!LO:TX:b:i:t=Gloria	!LO:TX:b:i:t=Gloria
!LO:TX:a:t=P:problem:mixed beam	!	!	!LO:TX:a:t=Allo	!	!LO:TX:a:t=Allo	!	!LO:TX:a:t=Allo	!	!LO:TX:a:t=Allo	!	!LO:TX:a:t=Allo	!LO:TX:a:t=Allo
!LO:TX:b:i:t=Gloria	!	!	!LO:TX:b:i:t=Gloria	!	!	!	!	!	!	!	!	!
8d\L	.	.	8dd\L	.	8dd\L	.	4d\	Glo-	4.dd\	Glo-	8d\L	8d\L
8D/J	.	.	8d/J	.	8d/J	.	.	.	.	.	8D/	8D/
16D\LL	.	.	16d/LL	.	16d/LL	.	16D\LL	.	.	.	8D/J	8D/J
16E\	.	.	16e/	.	16e/	.	16E\	.	.	.	.	.
16F#\	.	.	16f#/	.	16f#/	.	16F#\	.	8dd\	-ri-	8r	8r
16G\JJ	.	.	16g/JJ	.	16g/JJ	.	16G\JJ	-ri-	.	.	.	.
8A\L	.	.	8a/L	.	8a/L	.	4A\	-a	4cc#\	-a	8A/L	8A/L
8A\J	.	.	8a/J	.	8a/J	.	.	.	.	.	8A/	8A/
8A\L	.	.	8a/L	.	8a/L	.	8A\	in	8r	.	8A/J	8A/J
16B\L	.	.	16b/L	.	16b/L	.	16B\LL	ex-	16dd\	in	8r	8r
16c#\JJ	.	.	16cc#/JJ	.	16cc#/JJ	.	16c#\JJ	.	16ee\	ex	.	.
=2	=2	=2	=2	=2	=2	=2	=2	=2	=2	=2	=2	=2
!LO:TX:a:t=P:problem:mixed beam	!	!	!LO:TX:a:t=P:problem:mixed beam	!	!LO:TX:a:t=P:problem:mixed beam	!	!	!	!	!	!	!
8d\L	.	.	8dd\L	.	8dd\L	.	4d\	-cel-	4.ff#\	cel-	4F#/	4d\
8D/J	.	.	8d/J	.	8d/J	.	.	.	.	.	.	.
16D\LL	.	.	16d/LL	.	16d/LL	.	16D\LL	-sis	.	.	8r	8r
16E\	.	.	16e/	.	16e/	.	16E\JJ	.	.	.	.	.
16F#\	.	.	16f#/	.	16f#/	.	16F#\LL	.	8ff#\	-sis	8d\	8f#\
16G\JJ	.	.	16g/JJ	.	16g/JJ	.	16G\JJ	.	.	.	.	.
!LO:TX:a:t=P:problem:mixed beam	!	!	!	!	!	!	!	!	!	!	!	!
8A\L	4	.	8a/L	.	8a/L	.	8A\	De-	8ee\	Deo	4A/	4e\
8AA/J	3	.	8A/J	.	8A/J	.	8AA/	-o	8ee\	.	.	.
4r	.	.	8r	.	8r	.	4r	.	4r	.	4r	4r
.	.	.	16dd\LL	.	16ff#\LL	.	.	.	.	.	.	.
.	.	.	16ee\JJ	.	16gg\JJ	.	.	.	.	.	.	.
=3	=3	=3	=3	=3	=3	=3	=3	=3	=3	=3	=3	=3
4A\	#	.	8ff#\	.	8aa\	.	8r	.	8r	.	2r	2r
.	.	.	4cc#\	.	4ee\	.	4A\	in	4ee\	in	.	.
4A\	6_ 4_	.	.	.	.	.	.	.	.	.	.	.
.	.	.	8dd\	.	8ff#\	.	8d\	ex-	8ff#\	ex-	.	.
!LO:TX:a:t=P:problem:mixed beam	!	!	!	!	!	!	!	!	!	!	!	!
8A\L	.	.	8dd\	.	8ff#\L	.	8A\	-cel-	8ff#\	-cel-	4r	4r
8AA/J	x n	.	4cc#\	.	8ee\J	.	8A\	-ſis	8ee\	-sis	.	.
4r	.	.	.	.	8ee\L	.	4r	.	4r	.	8r	8r
.	.	.	16dd\LL	.	16ff#\L	.	.	.	.	.	16d\LL	16f#\LL
.	.	.	16ee\JJ	.	16gg\JJ	.	.	.	.	.	16e\JJ	16g\JJ
=4	=4	=4	=4	=4	=4	=4	=4	=4	=4	=4	=4	=4
4A\	#	.	8ff#\	.	8aa\	.	8r	.	8r	.	8f#\	8a\
.	.	.	4cc#\	.	4ee\	.	8A\	ex-	8ee\	ex-	4A/	4e\
4A\	6_ 4_	.	.	.	.	.	8A\	-cel-	8ee\	-cel-	.	.
.	.	.	8dd\	.	8ff#\	.	8d\	-sis	8ff#\	-sis	8d\	8f#\
!LO:TX:a:t=P:problem:mixed beam	!	!	!	!	!	!	!	!	!	!	!	!
8A\L	.	.	8dd\L	.	8ff#\L	.	8A\	De-	8ff#\	De-	8d\L	8f#\L
8AA/J	#	.	8cc#\J	.	8ee\J	.	8A\	-o	8ee\	-o	8A\J	8e\J
4r	.	.	4r	.	4r	.	4r	.	4r	.	4r	4r
=5	=5	=5	=5	=5	=5	=5	=5	=5	=5	=5	=5	=5
8B\L	-	.	8ff#\L	.	8ff#\L	.	2r	.	8ff#\	et	2r	2rg
8F#\	#3	.	8cc#\	.	8cc#\	.	.	.	8cc#\	in	.	.
!	!	!	!	!	!	!	!	!	!LO:LB:g=original	!	!	!
8F#\	.	.	8dd\	.	8dd\	.	.	.	8dd\	ter-	.	.
8F#\J	.	.	8b\J	.	8b\J	.	.	.	8b\	-ra-	.	.
!	!	!	!LO:SIC:v:s=16qqa#	!	!	!	!	!	!	!	!	!
.	.	.	16qqa/LL	.	16qqa#X/LL	.	.	.	.	.	.	.
.	.	.	16qqb/JJ	.	16qqb/JJ	.	.	.	.	.	.	.
!LO:LB:g=original	!	!	!	!	!	!	!	!	!	!	!	!
8F#\L	.	.	4cc#\	.	4cc#\	.	4F#\	pax	4a#X\	-pax	8r	8r
8F#\	.	.	.	.	.	.	.	.	.	.	8F#/	8F#/
8F#\	.	.	4r	.	4r	.	4r	.	4r	.	4F#/	4F#/
8F#\J	.	.	.	.	.	.	.	.	.	.	.	.
!	!	!	!LO:LB:g=original	!	!LO:LB:g=original	!	!LO:LB:g=original	!	!	!	!LO:LB:g=original	!LO:LB:g=original
=6	=6	=6	=6	=6	=6	=6	=6	=6	=6	=6	=6	=6
*2\right	*	*	*	*	*	*	*	*	*	*	*	*
*tremolo	*	*	*	*	*	*	*	*	*	*	*	*
8F#\L	.	.	8ff#\L	.	8ff#\L	.	2r	.	8ff#\	et	2r	2r
8F#\	.	.	8cc#\	.	8cc#\	.	.	.	8cc#\	in	.	.
8F#\	.	.	8dd\	.	8dd\	.	.	.	8dd\	terra	.	.
8F#\J	.	.	8b\J	.	8b\J	.	.	.	8b\	.	.	.
.	.	.	16qqa#X/LL	.	16qqa#X/LL	.	.	.	.	.	.	.
.	.	.	16qqb/JJ	.	16qqb/JJ	.	.	.	.	.	.	.
8F#\L	.	.	4cc#\	.	4cc#\	.	4F#\	pax	4a#X\	pax	8r	8r
8F#\	.	.	.	.	.	.	.	.	.	.	8F#/	8F#/
8F#\	.	.	4r	.	4r	.	4r	.	4r	.	4F#/	4F#/
8F#\J	.	.	.	.	.	.	.	.	.	.	.	.
=7	=7	=7	=7	=7	=7	=7	=7	=7	=7	=7	=7	=7
*	*	*	*	*	*	*	*2\right	*	*2\right	*	*	*
8D\L	.	.	8f#/L	.	8an/L	.	2D\	bo-	2an\	bo-	2r	2r
8D\	.	.	8f#/	.	8a/	.	.	.	.	.	.	.
8D\	.	.	8f#/	.	8a/	.	.	.	.	.	.	.
8D\J	.	.	8f#/J	.	8a/J	.	.	.	.	.	.	.
*Xtremolo	*	*	*	*	*	*	*	*	*	*	*	*
4G\	.	.	4g/	.	4b\	.	4G\	-ne	8b\	-ne	4r	4r
.	.	.	.	.	.	.	.	.	8b\	vo-	.	.
4G\	.	.	4ee\	.	4gg\	.	8F#\	vo-	4gg\	-lun-	8r	4g\
.	.	.	.	.	.	.	8G\	-lun-	.	.	8e\	.
=8	=8	=8	=8	=8	=8	=8	=8	=8	=8	=8	=8	=8
4A\	.	.	4dd\	.	8ff#\L	.	4A\	-ta-	8ff#\L	-ta-	4d\	4f#\
.	.	.	.	.	8ee\	.	.	.	8ee\	.	.	.
4AA/	.	.	4cc#\	.	8dd\	.	4AA/	.	8dd\	.	4A/	4e\
.	.	.	.	.	8cc#\J	.	.	.	8cc#\J	.	.	.
4D\	.	.	4dd\	.	4dd\	.	4D\	-tis	4dd\	-tis	4F#/	4d\
4F#\	.	.	4ff# 4a 4d/	.	4ff# 4a 4d/	.	4F#\	Lau-	4dd\	Lau-	4r	4r
=9	=9	=9	=9	=9	=9	=9	=9	=9	=9	=9	=9	=9
*	*	*	*	*	*^	*	*	*	*	*	*	*
4G\	.	.	4gg\	.	4gg/	4b\	.	4G\	-da-	4ee\	-da-	2r	2r
4A\	.	.	4ee\	.	4ee/	4cc#\	.	4A\	-mus	4cc#\	-mus-	.	.
8D\L	.	.	4ff# 4a 4d/	.	4ff# 4a 4d/	4ryy	.	4D\	te	4dd\	-te	4r	4r
16F#\L	.	.	.	.	.	.	.	.	.	.	.	.	.
16A\JJ	.	.	.	.	.	.	.	.	.	.	.	.	.
!LO:TX:a:t=P:problem:mixed beam	!	!	!	!	!	!	!	!	!	!	!	!	!
8d\L	.	.	4dd\	.	8dd\L	4ryy	.	8d\	be-	8ff#\	be-	4d\	4f#\
8D/J	.	.	.	.	8dd\J	.	.	8d\	-ne-	8ff#\	-ne-	.	.
*	*	*	*	*	*v	*v	*	*	*	*	*	*	*
=10	=10	=10	=10	=10	=10	=10	=10	=10	=10	=10	=10	=10
4G\	6	.	4ee\	.	4ee\	.	4G\	-di-	4gg\	-di-	4e\	4g\
4A\	.	.	4cc#\	.	4cc#\	.	8A\	-ci-	8ee\	-ci-	4A/	4e\
.	.	.	.	.	.	.	8A\	-mus	8ee\	-mus	.	.
!	!	!	!	!	!	!	!	!	!LO:LB:g=original	!	!	!
4D\	.	.	4dd\	.	4dd\	.	4D/	Te	4ff#\	te	4F#/	4d\
4r	.	.	4r	.	4r	.	4r	.	8dd\	a-	4r	4r
.	.	.	.	.	.	.	.	.	8dd\	-do-	.	.
=11	=11	=11	=11	=11	=11	=11	=11	=11	=11	=11	=11	=11
*	*	*	*	*	*	*below	*	*	*	*	*	*
!	!	!	!	!	!	!LO:DY:t=po	!	!	!	!	!	!
4r	.	.	8r	.	8r	p	4r	.	1ffn	-ra-	1r	1r
.	.	.	8dd\L	.	8dd\L	.	.	.	.	.	.	.
8D\L	.	.	8ffn\	.	8ffn\	.	8D\	a-	.	.	.	.
8D\J	.	.	8dd\J	.	8dd\J	.	8D\	-do-	.	.	.	.
*tremolo	*	*	*	*	*	*	*	*	*	*	*	*
!LO:TX:a:t=....	!	!	!	!	!	!	!LO:SIC:v:s=2d	!	!	!	!	!
8B-X\L	.	.	8r	.	8r	.	2d-\	-ra-	.	.	.	.
8B-X\	.	.	8dd\L	.	8dd\L	.	.	.	.	.	.	.
8B-X\	.	.	8ff\	.	8ff\	.	.	.	.	.	.	.
8B-X\J	.	.	8dd\J	.	8dd\J	.	.	.	.	.	.	.
*Xtremolo	*	*	*	*	*	*	*	*	*	*	*	*
=12	=12	=12	=12	=12	=12	=12	=12	=12	=12	=12	=12	=12
4A\	.	.	8cc#\L	.	8ee\L	f	8A\	-mus	8ee\	-mus	4A/	4e\
.	.	.	8cc#\	.	8ee\	.	8A\	glo-	8ee\	glo-	.	.
4G\	.	.	8dd\	.	8ff#\	.	8A\	-ri-	8ff#X\	-ri-	8d\L	8f#\L
.	.	.	8ee\J	.	8gg\J	.	8A\	-fi-	8gg\	-fi-	8e\J	8g\J
!	!	!	!	!	!	!	!LO:LB:g=original	!	!	!	!	!
4d\	.	.	4dd\	.	4ff#\	.	4d\	-ca-	4ff#\	-ca-	4d\	4f#\
4A\	.	.	4cc#\	.	4ee\	.	4A\	-mus	4ee\	-mus	4A/	4e\
=13	=13	=13	=13	=13	=13	=13	=13	=13	=13	=13	=13	=13
4D\	.	.	8cc#\L	.	8ff# 8a 8d/	.	4D/	Te	8dd\	te	4d\	4f#\
.	.	.	8a\	.	8a/L	.	.	.	8a\L	gra-	.	.
4r	.	.	8b\	.	8b/	.	4r	.	8b\	.	4r	4r
.	.	.	8cc#\J	.	8cc#/J	.	.	.	8cc#\J	.	.	.
!	!	!	!	!	!LO:LB:g=original	!	!	!	!	!	!	!
8r	.	.	4dd\	.	4dd\	.	8r	.	4dd\	.	4F#/	4d\
8D\L	.	.	.	.	.	.	8D\L	gra-	.	.	.	.
8E\	.	.	4ccn\	.	4ccn\	.	8E\J	.	4ccn\	-ti-	4F#/	4d\
8F#\J	-n5	.	.	.	.	.	8F#\	-ti-	.	.	.	.
!	!	!	!LO:LB:g=original	!	!	!	!	!	!	!	!	!LO:LB:g=original
=14	=14	=14	=14	=14	=14	=14	=14	=14	=14	=14	=14	=14
4G\	.	.	8b\L	.	8b\L	.	4G\	-as	8b\	-as	2rg	2rg
.	.	.	8b\	.	8b\	.	.	.	8b\L	gra-	.	.
4r	.	.	8cc#\	.	8cc#X\	.	4r	.	8cc#X\	.	.	.
.	.	.	8dd\J	.	8dd\J	.	.	.	8dd\J	.	.	.
8r	.	.	4ee\	.	4ee\	.	8r	.	4ee\	.	4A/	4e\
8E\L	.	.	.	.	.	.	8E\L	gra-	.	.	.	.
8F#\	.	.	4dd\	.	4dd\	.	8F#\J	.	4dd\	-ti-	4A/	4e\
8G#X\J	-n5	.	.	.	.	.	8G#X\	-ti-	.	.	.	.
!	!	!	!	!	!	!	!	!	!	!	!LO:LB:g=original	!
=15	=15	=15	=15	=15	=15	=15	=15	=15	=15	=15	=15	=15
4A\	.	.	8cc#\L	.	8cc#\L	.	8A\	-as	8cc#\	-as	4r	4r
.	.	.	8cc#\	.	8ee\	.	8A\	a-	8ee\	a-	.	.
4AA/	.	.	8dd\	.	8ff#\	.	8A\	-gi-	8ff#\	-gi-	8d\L	8f#\L
.	.	.	8ee\J	.	8gg\J	.	8A\	-mus	8gg\	-mus	8e\J	8g\J
!LO:LB:g=original	!	!	!	!	!	!	!	!	!LO:LB:g=original	!	!	!
4D\	.	.	4dd\	.	4ff#\	.	4d\	Ti-	4ff#\	Ti-	4d\	4f#\
4A\	.	.	4cc#\	.	4ee\	.	4A\	-bi	4ee\	-bi	4A/	4e\
=16	=16	=16	=16	=16	=16	=16	=16	=16	=16	=16	=16	=16
4d\	.	.	16d/LL	.	16d/LL	.	4d\	p(ro)-	4dd\	p(ro)-	8d\	8f#\
.	.	.	16a/	.	16a/	.	.	.	.	.	.	.
.	.	.	16ff#/	.	16ff#/	.	.	.	.	.	8r	8r
.	.	.	16a/JJ	.	16a/JJ	.	.	.	.	.	.	.
4c#\	.	.	16d/LL	.	16d/LL	.	4c#\	-pter	4dd\	-pter	8d\	8f#\
.	.	.	16a/	.	16a/	.	.	.	.	.	.	.
.	.	.	16ff#/	.	16ff#/	.	.	.	.	.	8r	8r
.	.	.	16a/JJ	.	16a/JJ	.	.	.	.	.	.	.
4B\	.	.	16d/LL	.	16d/LL	.	4B\	ma-	4dd\	mag-	8d\	8f#\
.	.	.	16a/	.	16a/	.	.	.	.	.	.	.
.	.	.	16ff#/	.	16ff#/	.	.	.	.	.	8r	8r
.	.	.	16a/JJ	.	16a/JJ	.	.	.	.	.	.	.
4A\	.	.	16d/LL	.	16d/LL	.	4A\	-gnam	4dd\	-nam	8d\	8f#\
.	.	.	16a/	.	16a/	.	.	.	.	.	.	.
.	.	.	16ff#/	.	16ff#/	.	.	.	.	.	8r	8r
.	.	.	16a/JJ	.	16a/JJ	.	.	.	.	.	.	.
=17	=17	=17	=17	=17	=17	=17	=17	=17	=17	=17	=17	=17
4G\	6	.	16d/LL	.	16d/LL	.	4G\	glo-	4dd\	glo-	8d\	8f#\
.	.	.	16a/	.	16a/	.	.	.	.	.	.	.
.	.	.	16ff#/	.	16ff#/	.	.	.	.	.	8r	8r
.	.	.	16a/JJ	.	16a/JJ	.	.	.	.	.	.	.
8F#\L	.	.	16d/LL	.	16d/LL	.	8F#\	-ri-	8dd\	-ri-	8d\	8f#\
.	.	.	16a/	.	16a/	.	.	.	.	.	.	.
8G\J	.	.	16ff#/	.	16ff#/	.	8G\	-am	8dd\	-am	8r	8r
.	.	.	16a/JJ	.	16a/JJ	.	.	.	.	.	.	.
4A\	6 4	.	4ee\	.	4gg\	.	4A\	Tu-	(4ee\	tu-	4e\	4g\
4AA/	5 3	.	4cc#\	.	4ee\	.	4AA/	.	4cc#\)	.	4A/	4e\
=18	=18	=18	=18	=18	=18	=18	=18	=18	=18	=18	=18	=18
!	!	!	!LO:TX:a:t=P:problem:mixed beam	!	!LO:TX:a:t=P:problem:mixed beam	!	!	!	!	!	!LO:TX:a:t=P:problem:mixed beam	!LO:TX:a:t=P:problem:mixed beam
8D\L|	.	.	8dd\L	.	8dd\L	.	4D/	-am	4dd\	-am	8d\L	8d\L
8D\J|	.	.	8d/J	.	8d/J	.	.	.	.	.	8D/	8D/
16D\LL|	.	.	16d/LL	.	16d/LL	.	4r	.	4r	.	8D/J	8D/J
16E\|	.	.	16e/	.	16e/	.	.	.	.	.	.	.
16F#\|	.	.	16f#/	.	16f#/	.	.	.	.	.	8r	8r
16G\JJ|	.	.	16g/JJ	.	16g/JJ	.	.	.	.	.	.	.
8A\L|	.	.	8a/L	.	8a/L	.	2r	.	2r	.	8A/L	8A/L
8A\J|	.	.	8a/J	.	8a/J	.	.	.	.	.	8A/	8A/
8A\L|	.	.	8a\L	.	8a/L	.	.	.	.	.	8A/J	8A/J
16B\L|	.	.	16b\L	.	16b/L	.	.	.	.	.	8r	8r
16c#\JJ|	.	.	16cc#\JJ	.	16cc#/JJ	.	.	.	.	.	.	.
=19	=19	=19	=19	=19	=19	=19	=19	=19	=19	=19	=19	=19
!	!	!	!LO:TX:a:t=P:problem:mixed beam	!	!LO:TX:a:t=P:problem:mixed beam	!	!	!	!	!	!	!
8d\L|	.	.	8dd\L	.	8dd\L	.	1r	.	1r	.	4r	4r
8F#\|	.	.	8f#/	.	8f#/	.	.	.	.	.	.	.
8G\|	.	.	8g/	.	8g/	.	.	.	.	.	8r	8r
8A\J|	.	.	8a/J	.	8a/J	.	.	.	.	.	8A/	8A/
4D\|	.	.	4d/	.	4d/	.	.	.	.	.	4D/	4D/
4r	.	.	4r	.	4r	.	.	.	.	.	4r	4r
!	!	!	!LO:LB:g=original	!	!LO:LB:g=original	!	!LO:LB:g=original	!	!	!	!LO:LB:g=original	!LO:LB:g=original
=20||	=20||	=20||	=20||	=20||	=20||	=20||	=20||	=20||	=20||	=20||	=20||	=20||
*k[f#]	*	*	*k[f#]	*	*k[f#]	*	*	*	*k[f#]	*	*	*
*M2/4	*	*	*M2/4	*	*M2/4	*	*	*	*M2/4	*	*	*
!LO:TX:a:t=P:problem:nadmiarowa pauza w Canto	!	!	!LO:TX:a:t=P:problem:nadmiarowa pauza w Canto	!	!LO:TX:a:t=P:problem:nadmiarowa pauza w Canto	!	!LO:TX:a:t=P:problem:nadmiarowa pauza w Canto	!	!	!	!LO:TX:a:t=P:problem:nadmiarowa pauza w Canto	!LO:TX:a:t=P:problem:nadmiarowa pauza w Canto
!	!	!	!	!	!LO:TX:a:t=P:problem:krzyżyk f#	!	!LO:TX:a:i:t=Domine \nTacet	!	!LO:TX:a:t=Solo	!	!LO:TX:a:i:t=Laudamus Quitollis Tacett	!LO:TX:a:i:t=Laudamus Quitollis \nTacett
8ryy	.	.	8ryy	.	8ryy	.	8ryy	.	8r	.	8ryy	8ryy
=	=	=	=	=	=	=	=	=	=	=	=	=
!	!	!	!LO:TX:a:t=P:problem:krzyżyk f#	!	!	!	!	!	!	!	!	!
!LO:TX:b:i:t=Domine	!	!	!LO:TX:b:i:t=Domine	!	!LO:TX:b:t=Domine	!	!	!	!LO:TX:a:t=12	!	!	!
!LO:TX:a:t=Solo	!	!	!LO:TX:a:t=Solo	!	!LO:TX:a:i:t=Ada	!	!	!	!LO:N:vis=00	!	!	!
8G\L	.	.	4g/	.	16g/LL	.	2ryy	.	0r	.	2ryy	2ryy
.	.	.	.	.	16d/	.	.	.	.	.	.	.
8G\	.	.	.	.	16g/	.	.	.	.	.	.	.
.	.	.	.	.	16a/JJ	.	.	.	.	.	.	.
8G\	.	.	16g/LL	.	16b/LL	.	.	.	.	.	.	.
.	.	.	16d/	.	16g/	.	.	.	.	.	.	.
8G\J	.	.	16g/	.	16b/	.	.	.	.	.	.	.
.	.	.	16a/JJ	.	16cc/JJ	.	.	.	.	.	.	.
=21	=21	=21	=21	=21	=21	=21	=21	=21	=21	=21	=21	=21
8G\L	.	.	8.b\L	.	8.dd\L	.	2ryy	.	.	.	2ryy	2ryy
8G\	.	.	.	.	.	.	.	.	.	.	.	.
.	.	.	16cc\Jk	.	16ee\Jk	.	.	.	.	.	.	.
8D\	7	.	8.a/L	.	8.cc\L	.	.	.	.	.	.	.
8D\J	.	.	.	.	.	.	.	.	.	.	.	.
.	.	.	16b/Jk	.	16dd\Jk	.	.	.	.	.	.	.
=22	=22	=22	=22	=22	=22	=22	=22	=22	=22	=22	=22	=22
!LO:TX:a:t=P:problem:mixed beam	!	!	!	!	!	!	!	!	!	!	!	!
8GG/L	.	.	8g/L	.	16b/LL	.	2ryy	.	.	.	2ryy	2ryy
.	.	.	.	.	16g/	.	.	.	.	.	.	.
8G\	.	.	16b/L	.	16b/	.	.	.	.	.	.	.
.	.	.	16dd/JJ	.	16dd/JJ	.	.	.	.	.	.	.
8G\	.	.	16gg\LL	.	16gg\LL	.	.	.	.	.	.	.
.	.	.	16dd\	.	16dd\	.	.	.	.	.	.	.
8G\J	.	.	16gg\	.	16gg\	.	.	.	.	.	.	.
.	.	.	16bb\JJ	.	16bb\JJ	.	.	.	.	.	.	.
=23	=23	=23	=23	=23	=23	=23	=23	=23	=23	=23	=23	=23
8G\L	.	.	4bb\	.	4ddd\	.	2ryy	.	.	.	2ryy	2ryy
8B\	.	.	.	.	.	.	.	.	.	.	.	.
8A\	.	.	4aa\	.	4ccc\	.	.	.	.	.	.	.
8D\J	7	.	.	.	.	.	.	.	.	.	.	.
=24	=24	=24	=24	=24	=24	=24	=24	=24	=24	=24	=24	=24
!LO:TX:a:t=P:problem:mixed beam	!	!	!	!	!	!	!	!	!LO:N:vis=00	!	!	!
8G\L	.	.	16gg\LL	.	16bb\LL	.	2ryy	.	0r	.	2ryy	2ryy
.	.	.	16b\	.	16gg\	.	.	.	.	.	.	.
8GG/J	.	.	16b\	.	16gg\	.	.	.	.	.	.	.
.	.	.	16b\JJ	.	16gg\JJ	.	.	.	.	.	.	.
*	*	*	*tremolo	*	*tremolo	*	*	*	*	*	*	*
16r	.	.	16b\LL	.	16gg\LL	.	.	.	.	.	.	.
!LO:TX:a:t=P:problem:mixed beam	!	!	!	!	!	!	!	!	!	!	!	!
16G\LL	.	.	16b\	.	16gg\	.	.	.	.	.	.	.
16GG/	.	.	16b\	.	16gg\	.	.	.	.	.	.	.
16G\JJ	.	.	16b\JJ	.	16gg\JJ	.	.	.	.	.	.	.
*	*	*	*Xtremolo	*	*Xtremolo	*	*	*	*	*	*	*
!LO:LB:g=original	!	!	!	!	!	!	!	!	!	!	!	!
=25	=25	=25	=25	=25	=25	=25	=25	=25	=25	=25	=25	=25
4G\	.	.	16r	.	16r	.	2ryy	.	.	.	2ryy	2ryy
.	.	.	16b\LL	.	16gg\LL	.	.	.	.	.	.	.
.	.	.	16a\	.	16ff#\	.	.	.	.	.	.	.
.	.	.	16b\JJ	.	16gg\JJ	.	.	.	.	.	.	.
!	!	!	!	!	!LO:TUP:problem:klamra łukowa	!	!	!	!	!	!	!
8F#\L	5	.	16cc\LL	.	24aa\LL	.	.	.	.	.	.	.
.	.	.	.	.	24ff#\	.	.	.	.	.	.	.
.	.	.	16b\	.	.	.	.	.	.	.	.	.
.	.	.	.	.	24dd\JJ	.	.	.	.	.	.	.
8G\J	.	.	16a\	.	16cc\LL	.	.	.	.	.	.	.
.	.	.	16g\JJ	.	16b\JJ	.	.	.	.	.	.	.
=26	=26	=26	=26	=26	=26	=26	=26	=26	=26	=26	=26	=26
!LO:TX:a:t=P:problem:mixed beam	!	!	!	!	!	!	!	!	!	!	!	!
8d\L	6 4	.	8g/L	.	8b/L	.	2ryy	.	.	.	2ryy	2ryy
8D/	x 3	.	8f#/J	.	8a/J	.	.	.	.	.	.	.
8D/	.	.	8r	.	8r	.	.	.	.	.	.	.
8D/J	.	.	8d/	.	8d/	.	.	.	.	.	.	.
=27	=27	=27	=27	=27	=27	=27	=27	=27	=27	=27	=27	=27
4D\	.	.	4a/	.	(16cc/LL	.	2ryy	.	.	.	2ryy	2ryy
.	.	.	.	.	16a/	.	.	.	.	.	.	.
.	.	.	.	.	16f#/	.	.	.	.	.	.	.
.	.	.	.	.	16d/JJ)	.	.	.	.	.	.	.
8A\L	.	.	(16cc/LL	.	4cc\	.	.	.	.	.	.	.
.	.	.	16a/	.	.	.	.	.	.	.	.	.
8D\J	7	.	16f#/	.	.	.	.	.	.	.	.	.
.	.	.	16d/JJ)	.	.	.	.	.	.	.	.	.
=28	=28	=28	=28	=28	=28	=28	=28	=28	=28	=28	=28	=28
!	!	!	!	!	!	!	!	!	!LO:N:vis=00	!	!	!
4G\	.	.	4b/	.	(16dd/LL	.	2ryy	.	0r	.	2ryy	2ryy
.	.	.	.	.	16b/	.	.	.	.	.	.	.
.	.	.	.	.	16g/	.	.	.	.	.	.	.
.	.	.	.	.	16d/JJ)	.	.	.	.	.	.	.
8B\L	.	.	(16dd/LL	.	4dd\	.	.	.	.	.	.	.
.	.	.	16b/	.	.	.	.	.	.	.	.	.
8G\J	.	.	16f#/	.	.	.	.	.	.	.	.	.
.	.	.	16d/JJ)	.	.	.	.	.	.	.	.	.
!	!	!	!	!	!LO:LB:g=original	!	!	!	!	!	!	!
=29	=29	=29	=29	=29	=29	=29	=29	=29	=29	=29	=29	=29
4D\	.	.	4a/	.	(16cc/LL	.	2ryy	.	.	.	2ryy	2ryy
.	.	.	.	.	16a/	.	.	.	.	.	.	.
.	.	.	.	.	16f#/	.	.	.	.	.	.	.
.	.	.	.	.	16d/JJ)	.	.	.	.	.	.	.
!	!	!	!LO:LB:g=original	!	!	!	!	!	!	!	!	!
8A\L	.	.	(16cc/LL	.	4cc\	.	.	.	.	.	.	.
.	.	.	16a/	.	.	.	.	.	.	.	.	.
8D\J	7	.	16f#/	.	.	.	.	.	.	.	.	.
.	.	.	16d/JJ)	.	.	.	.	.	.	.	.	.
=30	=30	=30	=30	=30	=30	=30	=30	=30	=30	=30	=30	=30
8G\L	.	.	16g/LL	.	16b\LL	.	2ryy	.	.	.	2ryy	2ryy
.	.	.	16g/	.	16b\	.	.	.	.	.	.	.
8G\	.	.	16g/	.	16b\	.	.	.	.	.	.	.
.	.	.	16g/JJ	.	16b\JJ	.	.	.	.	.	.	.
*	*	*	*tremolo	*	*tremolo	*	*	*	*	*	*	*
8E\	.	.	16g/LL	.	16b\LL	.	.	.	.	.	.	.
.	.	.	16g/	.	16b\	.	.	.	.	.	.	.
8C#X\J	.	.	16g/	.	16b\	.	.	.	.	.	.	.
.	.	.	16g/JJ	.	16b\JJ	.	.	.	.	.	.	.
*	*	*	*Xtremolo	*	*Xtremolo	*	*	*	*	*	*	*
=31	=31	=31	=31	=31	=31	=31	=31	=31	=31	=31	=31	=31
*	*	*	*Xtuplet	*	*	*	*	*	*	*	*	*
!	!	!	!	!	!LO:TUP:problem:klamra łukowa	!	!	!	!	!	!	!
4D\	7	.	24b/LL	.	24b\LL	.	2ryy	.	.	.	2ryy	2ryy
.	.	.	24a/	.	24a\	.	.	.	.	.	.	.
.	.	.	24b/JJ	.	24b\JJ	.	.	.	.	.	.	.
!	!	!	!	!	!LO:TUP:problem:klamra łukowa	!	!	!	!	!	!	!
.	.	.	24cc/LL	.	24cc\LL	.	.	.	.	.	.	.
.	.	.	24b/	.	24b\	.	.	.	.	.	.	.
.	.	.	24a/JJ	.	24a\JJ	.	.	.	.	.	.	.
8G\L	.	.	8g/L	.	8b/L	.	.	.	.	.	.	.
8D\J	.	.	8f#/J	.	8a/J	.	.	.	.	.	.	.
=32	=32	=32	=32	=32	=32	=32	=32	=32	=32	=32	=32	=32
8G\L	.	.	4g/	.	4g/	.	2ryy	.	4r	.	2ryy	2ryy
8D\J	.	.	.	.	.	.	.	.	.	.	.	.
4GG/	.	.	8r	.	8r	.	.	.	8r	.	.	.
!	!	!	!	!	!	!LO:DY:t=pu	!	!	!	!	!	!
.	.	.	8g/	p	8g/	p	.	.	8b\	Do-	.	.
=33	=33	=33	=33	=33	=33	=33	=33	=33	=33	=33	=33	=33
8G\L	.	p	8.b/L	.	8.dd\L	.	2ryy	.	8.dd\	-mi-	2ryy	2ryy
8G\	.	.	.	.	.	.	.	.	.	.	.	.
.	.	.	16cc/K	.	16ee\Jk	.	.	.	16ee\	-ne	.	.
8D\	7	.	8.a/	.	8.cc\L	.	.	.	(8cc\L	.	.	.
8D\J	.	.	.	.	.	.	.	.	8dd\J)	.	.	.
.	.	.	16b/Jk	.	16dd\Jk	.	.	.	.	.	.	.
!	!	!	!	!	!	!	!	!	!LO:LB:g=original	!	!	!
=34	=34	=34	=34	=34	=34	=34	=34	=34	=34	=34	=34	=34
!LO:TX:a:t=P:problem:mixed beam	!	!	!	!	!	!	!	!	!	!	!	!
8GG/L	.	.	8g/L	.	8b/L	.	2ryy	.	16b\LL	De-	2ryy	2ryy
.	.	.	.	.	.	.	.	.	16f#\JJ	.	.	.
8G\	.	.	8g/J	.	8b/J	.	.	.	8g\	-us	.	.
8G\	.	.	16g/LL	.	16b/LL	.	.	.	4r	.	.	.
.	.	.	16g/	.	16g/	.	.	.	.	.	.	.
8G\J	.	.	16a/	.	16cc/	.	.	.	.	.	.	.
.	.	.	16b/JJ	.	16dd/JJ	.	.	.	.	.	.	.
=35	=35	=35	=35	=35	=35	=35	=35	=35	=35	=35	=35	=35
!LO:TX:a:t=P:problem:mixed beam	!	!	!	!	!	!	!	!	!	!	!	!
8c\L	.	.	8cc\L	.	8ee\L	.	2ryy	.	8.ee\	Rex	2ryy	2ryy
8c\	.	.	8cc\	.	8ee\	.	.	.	.	.	.	.
!	!	!	!	!	!	!	!	!	!LO:SIC:v:l:s=cae	!	!	!
.	.	.	.	.	.	.	.	.	16ee\	ce-	.	.
8d\	4	.	8b\	.	8dd\	.	.	.	8dd\L	-les-	.	.
8D/J	3	.	8a\J	.	8cc\J	.	.	.	8cc\J	.	.	.
=36	=36	=36	=36	=36	=36	=36	=36	=36	=36	=36	=36	=36
8G\L	.	.	8g/L	.	16b/LL	.	2ryy	.	4b\	-tis	2ryy	2ryy
.	.	.	.	.	16g/	.	.	.	.	.	.	.
8G\	.	.	16g/L	.	16b/	.	.	.	.	.	.	.
.	.	.	16a/JJ	.	16cc/JJ	.	.	.	.	.	.	.
8G\	.	.	4b/	.	4dd\	.	.	.	16b\LL	De-	.	.
.	.	.	.	.	.	.	.	.	16g\JJ	.	.	.
8G\J	.	.	.	.	.	.	.	.	16b\LL	-us	.	.
.	.	.	.	.	.	.	.	.	16cc\JJ	.	.	.
=37	=37	=37	=37	=37	=37	=37	=37	=37	=37	=37	=37	=37
8G\L	.	.	4b/	.	4dd\	.	2ryy	.	4dd\	Pa-	2ryy	2ryy
8G\	.	.	.	.	.	.	.	.	.	.	.	.
8F#\	5	.	8a/L	.	8cc\L	.	.	.	8cc\	-ter	.	.
8G\J	.	.	8g/J	.	8b\J	.	.	.	8b\	om-	.	.
=38	=38	=38	=38	=38	=38	=38	=38	=38	=38	=38	=38	=38
!LO:TX:a:t=P:problem:mixed beam	!	!	!	!	!	!	!	!	!	!	!	!
8D\L	6 4	.	8g/L	f	8b\L	.	2ryy	.	16b\	-ni-	2ryy	2ryy
.	x 3	.	.	.	.	.	.	.	16g\	-po-	.	.
8DD/J	.	.	8f#/J	.	8a\J	.	.	.	8a\	-tens	.	.
4r	.	.	16f#/LL	.	16ff#\LL	.	.	.	4r	.	.	.
.	.	.	16d/	.	16dd\	.	.	.	.	.	.	.
.	.	.	16e/	.	16ee\	.	.	.	.	.	.	.
.	.	.	16c/JJ	.	16cc#X\JJ	.	.	.	.	.	.	.
!	!	!	!LO:LB:g=original	!	!LO:LB:g=original	!	!	!	!	!	!	!
=39	=39	=39	=39	=39	=39	=39	=39	=39	=39	=39	=39	=39
*tremolo	*	*	*	*	*	*	*	*	*	*	*	*
!LO:TX:a:t=....	!	!	!	!LO:DY:rj:t=p	!	!	!	!	!	!	!	!
16D\LL	.	.	16f#/LL	p	16dd\LL	.	2ryy	.	4a\	Do-	2ryy	2ryy
16D\	.	.	16f#/	.	16a'\	.	.	.	.	.	.	.
16D\	.	.	16f#/	.	16a'\	.	.	.	.	.	.	.
16D\	.	.	16f#/JJ	.	16a'\JJ	.	.	.	.	.	.	.
*	*	*	*tremolo	*	*tremolo	*	*	*	*	*	*	*
!	!	!	!	!	!LO:TX:b:t=...	!	!	!	!	!	!	!
16D\	.	.	16f#/LL	.	16a/LL	.	.	.	8dd\	-mi-	.	.
16D\	.	.	16f#/	.	16a/	.	.	.	.	.	.	.
16D\	.	.	16f#/	.	16a/	.	.	.	8cc\	-ne	.	.
16D\JJ	.	.	16f#/JJ	.	16a/JJ	.	.	.	.	.	.	.
*Xtremolo	*	*	*	*	*Xtremolo	*	*	*	*	*	*	*
!LO:LB:g=original	!	!	!	!	!	!	!	!	!	!	!	!
=40	=40	=40	=40	=40	=40	=40	=40	=40	=40	=40	=40	=40
16G'\LL	.	.	16g/LL	.	16b'/LL	.	2ryy	.	16b\LL	Fi-	2ryy	2ryy
16G'\	.	.	16g/	.	16b'/	.	.	.	16a\JJ	.	.	.
16G'\	.	.	16g/	.	16b'/	.	.	.	8b\	-li	.	.
16G'\JJ	.	.	16g/	.	16b'/JJ	.	.	.	.	.	.	.
*	*	*	*	*	*tremolo	*	*	*	*	*	*	*
16G'\LL	.	.	16g/	.	16b/LL	.	.	.	4r	.	.	.
16G'\	.	.	16g/	.	16b/	.	.	.	.	.	.	.
16F#'\	.	.	16g/	.	16b/	.	.	.	.	.	.	.
16F#'\JJ	.	.	16g/JJ	.	16b/JJ	.	.	.	.	.	.	.
=41	=41	=41	=41	=41	=41	=41	=41	=41	=41	=41	=41	=41
*tremolo	*	*	*	*	*	*	*	*	*	*	*	*
!LO:TX:a:t=...	!	!	!	!	!LO:TX:b:t=....	!	!	!	!	!	!	!
16E\LL	.	.	16g#/LL	.	16b/LL	.	2ryy	.	4b\	u-	2ryy	2ryy
16E\	.	.	16g#/	.	16b/	.	.	.	.	.	.	.
16E\	.	.	16g#/	.	16b/	.	.	.	.	.	.	.
16E\	.	.	16g#/	.	16b/JJ	.	.	.	.	.	.	.
*	*	*	*	*	*Xtremolo	*	*	*	*	*	*	*
16E\	.	.	16g#/	.	16ee'\LL	.	.	.	8ee\	.	.	.
16E\	.	.	16g#/	.	16ee'\	.	.	.	.	.	.	.
16E\	.	.	16g#/	.	16dd'\	.	.	.	8dd\	-ni	.	.
16E\JJ	.	.	16g#/JJ	.	16dd'\JJ	.	.	.	.	.	.	.
*Xtremolo	*	*	*Xtremolo	*	*	*	*	*	*	*	*	*
!	!	!	!	!	!	!	!	!	!LO:LB:g=original	!	!	!
=42	=42	=42	=42	=42	=42	=42	=42	=42	=42	=42	=42	=42
!LO:TX:a:t=P:problem:mixed beam	!	!	!	!	!	!	!	!	!LO:N:vis=16.	!	!	!
8A\L	.	.	16.a/LL	.	16cc#X\LL	.	2ryy	.	16cc\	ge-	2ryy	2ryy
.	.	.	.	.	16a\	.	.	.	16dd\	-ni-	.	.
.	.	.	32a/K	.	.	.	.	.	.	.	.	.
8AA/J	.	.	16.cc/	.	16cc#\	.	.	.	8ee\	-te	.	.
.	.	.	.	.	16ee\JJ	.	.	.	.	.	.	.
.	.	.	32ee/JJk	.	.	.	.	.	.	.	.	.
16r	.	.	16aa\LL	.	16aa\LL	.	.	.	8r	.	.	.
16A\LL	#	.	16cc\	.	16ee\	.	.	.	.	.	.	.
16B\	.	.	16dd\	.	16ff#\	.	.	.	8gg\	Je-	.	.
16c#X\JJ	.	.	16ee\JJ	.	16gg\JJ	.	.	.	.	.	.	.
=43	=43	=43	=43	=43	=43	=43	=43	=43	=43	=43	=43	=43
!LO:TX:a:t=P:problem:mixed beam	!	!	!	!	!	!	!	!	!	!	!	!
8d\L	.	.	4dd\	.	4ff#\	.	2ryy	.	8ff#\	.	2ryy	2ryy
8G\	6	.	.	.	.	.	.	.	16ee\LL	-su	.	.
.	.	.	.	.	.	.	.	.	16dd\JJ	.	.	.
8A\	6 4	.	4r	.	4r	.	.	.	4ee\	Chris-	.	.
8AA/J	x 3	.	.	.	.	.	.	.	.	.	.	.
=44	=44	=44	=44	=44	=44	=44	=44	=44	=44	=44	=44	=44
!	!	!LO:DY:rj	!LO:TX:a:t=P:problem:mixed beam	!LO:DY:rj	!LO:TX:a:t=P:problem:mixed beam	!LO:DY:rj	!	!	!	!	!	!
8D\L	.	f	16dd\LL	f	16dd\LL	f	2ryy	.	4dd\	-te	2ryy	2ryy
.	.	.	16d/	.	16d/	.	.	.	.	.	.	.
8D\	.	.	16f#/	.	16f#/	.	.	.	.	.	.	.
.	.	.	16a/JJ	.	16a/JJ	.	.	.	.	.	.	.
8D\	.	.	16dd\LL	.	16dd\LL	.	.	.	4r	.	.	.
.	.	.	16a\	.	16a\	.	.	.	.	.	.	.
8D\J	.	.	16dd\	.	16ff#\	.	.	.	.	.	.	.
.	.	.	16ee\JJ	.	16gg\JJ	.	.	.	.	.	.	.
=45	=45	=45	=45	=45	=45	=45	=45	=45	=45	=45	=45	=45
!	!	!	!	!	!	!	!	!	!LO:TX:a:t=5	!	!	!
!	!	!	!	!	!	!	!	!	!LO:N:vis=00	!	!	!
8D\L	.	.	8.ff#\L	.	8.aa\L	.	2ryy	.	0r	.	2ryy	2ryy
8D\	.	.	.	.	.	.	.	.	.	.	.	.
.	.	.	16gg\	.	16bb\Jk	.	.	.	.	.	.	.
8A\	.	.	8.ee\	.	8.gg\L	.	.	.	.	.	.	.
8c\J	.	.	.	.	.	.	.	.	.	.	.	.
.	.	.	16ff#\Jk	.	16aa\Jk	.	.	.	.	.	.	.
=46	=46	=46	=46	=46	=46	=46	=46	=46	=46	=46	=46	=46
4d\	.	.	16r	.	16r	.	2ryy	.	.	.	2ryy	2ryy
.	.	.	16dd'\LL	.	16ff#\LL	.	.	.	.	.	.	.
.	.	.	16dd'\	.	16ff#\	.	.	.	.	.	.	.
.	.	.	16dd'\JJ	.	16ff#\JJ	.	.	.	.	.	.	.
4c\	.	.	16r	.	16r	.	.	.	.	.	.	.
.	.	.	16dd'\LL	.	16ff#\LL	.	.	.	.	.	.	.
.	.	.	16dd'\	.	16ff#\	.	.	.	.	.	.	.
.	.	.	16dd'\JJ	.	16ff#\JJ	.	.	.	.	.	.	.
=47	=47	=47	=47	=47	=47	=47	=47	=47	=47	=47	=47	=47
4B\	.	.	16r	.	16r	.	2ryy	.	.	.	2ryy	2ryy
.	.	.	16dd'\LL	.	16ff#\LL	.	.	.	.	.	.	.
.	.	.	16dd'\	.	16ff#\	.	.	.	.	.	.	.
.	.	.	16dd'\JJ	.	16ff#\JJ	.	.	.	.	.	.	.
4A\	.	.	16r	.	16r	.	.	.	.	.	.	.
.	.	.	16dd'\LL	.	16ff#\LL	.	.	.	.	.	.	.
.	.	.	16dd'\	.	16ff#\	.	.	.	.	.	.	.
.	.	.	16dd'\JJ	.	16ff#\JJ	.	.	.	.	.	.	.
!	!	!	!	!	!LO:LB:g=original	!	!	!	!	!	!	!
=48	=48	=48	=48	=48	=48	=48	=48	=48	=48	=48	=48	=48
8r	.	.	16r	.	16r	.	2ryy	.	.	.	2ryy	2ryy
.	.	.	16dd\	.	16ff#\	.	.	.	.	.	.	.
!LO:TX:a:t=P:problem:mixed beam	!	!	!	!	!LO:TUP:problem:klamra łukowa	!	!	!	!	!	!	!
8G\L	6	.	24dd\LL	.	24ff#\LL	.	.	.	.	.	.	.
.	.	.	24cc\	.	24ee\	.	.	.	.	.	.	.
.	.	.	24dd\JJ	.	24gg\JJ	.	.	.	.	.	.	.
!	!	!	!LO:LB:g=original	!	!	!	!	!	!	!	!	!
8A\	4	.	8ee\L	.	8ee\L	.	.	.	.	.	.	.
8AA/J	3	.	8cc#X\J	.	8dd\J	.	.	.	.	.	.	.
=49	=49	=49	=49	=49	=49	=49	=49	=49	=49	=49	=49	=49
!	!	!	!LO:TX:a:t=P:problem:mixed beam	!	!LO:TX:a:t=P:problem:mixed beam	!	!	!	!	!	!	!
8D/L	.	.	16cc\LL	.	16dd\LL	.	2ryy	.	2r	.	2ryy	2ryy
.	.	.	16d/	.	16d/	.	.	.	.	.	.	.
8AA/J	.	.	16f#/	.	16f#/	.	.	.	.	.	.	.
.	.	.	16a/JJ	.	16a/JJ	.	.	.	.	.	.	.
4DD/	.	.	4d/	.	4d/	.	.	.	.	.	.	.
=50	=50	=50	=50	=50	=50	=50	=50	=50	=50	=50	=50	=50
!	!	!LO:DY:t=pu	!	!	!	!	!	!	!	!	!	!
8D\L	.	p	8.f#/L	p	8.a/L	.	2ryy	.	8.a\	Do-	2ryy	2ryy
8D\	.	.	.	.	.	.	.	.	.	.	.	.
.	.	.	16g/Jk	.	16b/	.	.	.	16b\	-mi-	.	.
8D\	.	.	8.f#/L	.	8.a/	.	.	.	8a\L	-ne	.	.
8D\J	.	.	.	.	.	.	.	.	8b\J	.	.	.
.	.	.	16g/Jk	.	16b/Jk	.	.	.	.	.	.	.
=51	=51	=51	=51	=51	=51	=51	=51	=51	=51	=51	=51	=51
8D\L	.	.	16a/LL	.	16ccn\LL	.	2ryy	.	16ccn\LL	De-	2ryy	2ryy
.	.	.	16g/J	.	16b\J	.	.	.	16b\JJ	.	.	.
8B\	.	.	8a/J	.	8cc\J	.	.	.	8cc\	-us	.	.
8F#\	.	.	16r	.	16r	.	.	.	16r	.	.	.
.	.	.	16cc/LL	.	16ee\LL	.	.	.	16ee\	Ag-	.	.
8D\J	.	.	16b/	.	16dd\	.	.	.	16dd\LL	-nus	.	.
.	.	.	16a/JJ	.	16cc\JJ	.	.	.	16cc\JJ	.	.	.
=52	=52	=52	=52	=52	=52	=52	=52	=52	=52	=52	=52	=52
8G\L	.	.	16g/LL	.	16b/LL	.	2ryy	.	16b\LL	De-	2ryy	2ryy
.	.	.	16f#/J	.	16a/J	.	.	.	16a\JJ	.	.	.
8G\	.	.	8g/J	.	8g/J	.	.	.	8g\	-i	.	.
8B\	.	.	8r	.	8r	.	.	.	8r	.	.	.
8B\J	.	.	8dd\	.	8dd\	.	.	.	8dd\	Ag-	.	.
=53	=53	=53	=53	=53	=53	=53	=53	=53	=53	=53	=53	=53
8B\L	.	.	16gg\LL	.	16gg\LL	.	2ryy	.	16gg\LL	.	2ryy	2ryy
.	.	.	16ff#\	.	16ff#\	.	.	.	16ff#\JJ	.	.	.
8B\	.	.	(16ee\	.	16ee\	.	.	.	16ee\LL	.	.	.
.	.	.	16dd\JJ)	.	16dd\JJ	.	.	.	16dd\JJ	.	.	.
!	!	!	!	!	!	!	!	!	!LO:LB:g=original	!	!	!
8A\	.	.	16ee\LL	.	16cc\LL	.	.	.	8cc\	.	.	.
.	.	.	(16dd\	.	16b\	.	.	.	.	.	.	.
8G\J	.	.	16cc\)	.	16a\	.	.	.	8b\	-nus	.	.
.	.	.	16b\JJ	.	16g\JJ	.	.	.	.	.	.	.
!LO:LB:g=original	!	!	!	!	!	!	!	!	!	!	!	!
=54	=54	=54	=54	=54	=54	=54	=54	=54	=54	=54	=54	=54
!LO:TX:a:t=P:problem:mixed beam	!	!	!	!	!	!	!	!	!	!	!	!
16D/LL	.	.	8b/L	.	8b/L	.	2ryy	.	8b\	De-	2ryy	2ryy
16d\	.	.	.	.	.	.	.	.	.	.	.	.
16A\	.	.	8a/J	.	8a/J	.	.	.	8a\	-i	.	.
16F#\JJ	.	.	.	.	.	.	.	.	.	.	.	.
4D/	.	.	8r	.	8r	.	.	.	4r	.	.	.
.	.	.	8d/	.	8d/	.	.	.	.	.	.	.
=55	=55	=55	=55	=55	=55	=55	=55	=55	=55	=55	=55	=55
8D\L	.	.	4a/	.	16cc/LL	.	2ryy	.	16cc\LL	Fi-	2ryy	2ryy
.	.	.	.	.	16a/	.	.	.	16a\JJ	.	.	.
8A\	.	.	.	.	16f#/	.	.	.	16f#\LL	-li-	.	.
.	.	.	.	.	16d/JJ	.	.	.	16a\JJ	.	.	.
8F#\	.	.	16cc/LL	.	8cc\	.	.	.	4cc\	-us	.	.
.	.	.	16a/	.	.	.	.	.	.	.	.	.
8D\J	.	.	16f#/	.	8r	.	.	.	.	.	.	.
.	.	.	16d/JJ	.	.	.	.	.	.	.	.	.
=56	=56	=56	=56	=56	=56	=56	=56	=56	=56	=56	=56	=56
8G\L	.	.	4b/	.	16dd/LL	.	2ryy	.	16dd\LL	Pa-	2ryy	2ryy
.	.	.	.	.	16b/	.	.	.	16b\JJ	.	.	.
8D\J	.	.	.	.	16g/	.	.	.	16g\LL	.	.	.
.	.	.	.	.	16d/JJ	.	.	.	16b\JJ	.	.	.
8BB/L	.	.	16dd/LL	.	8dd\	.	.	.	4dd\	-tris	.	.
.	.	.	16b/	.	.	.	.	.	.	.	.	.
8GG/J	.	.	16g/	.	8r	.	.	.	.	.	.	.
.	.	.	16d/JJ	.	.	.	.	.	.	.	.	.
=57	=57	=57	=57	=57	=57	=57	=57	=57	=57	=57	=57	=57
8D\L	.	.	4a/	.	16cc/LL	.	2ryy	.	16cc\LL	Fi-	2ryy	2ryy
.	.	.	.	.	16a/	.	.	.	16a\JJ	.	.	.
8A\	.	.	.	.	16f#/	.	.	.	16f#\LL	-li-	.	.
.	.	.	.	.	16d/JJ	.	.	.	16a\JJ	.	.	.
8F#\	.	.	16cc/LL	.	8cc\	.	.	.	4cc\	-us	.	.
.	.	.	16a/	.	.	.	.	.	.	.	.	.
8D\J	.	.	16f#/	.	8r	.	.	.	.	.	.	.
.	.	.	16d/JJ	.	.	.	.	.	.	.	.	.
!	!	!	!	!	!LO:LB:g=original	!	!	!	!	!	!	!
=58	=58	=58	=58	=58	=58	=58	=58	=58	=58	=58	=58	=58
*	*	*	*tremolo	*	*	*	*	*	*	*	*	*
4G\	.	.	16g/LL	.	16b'/LL	.	2ryy	.	4g\	Pa-	2ryy	2ryy
.	.	.	16g/	.	16b'/	.	.	.	.	.	.	.
.	.	.	16g/	.	16b'/	.	.	.	.	.	.	.
.	.	.	16g/JJ	.	16b'/JJ	.	.	.	.	.	.	.
*	*	*	*	*	*tremolo	*	*	*	*	*	*	*
!	!	!	!	!	!LO:TX:b:t=....	!	!	!	!	!	!	!
4GG/	.	.	16g/LL	.	16b/LL	.	.	.	4b\	.	.	.
.	.	.	16g/	.	16b/	.	.	.	.	.	.	.
.	.	.	16g/	.	16b/	.	.	.	.	.	.	.
.	.	.	16g/JJ	.	16b/JJ	.	.	.	.	.	.	.
!	!	!	!LO:LB:g=original	!	!	!	!	!	!	!	!	!
=59	=59	=59	=59	=59	=59	=59	=59	=59	=59	=59	=59	=59
4G\	.	.	16g/LL	.	16b/LL	.	2ryy	.	4dd\	.	2ryy	2ryy
.	.	.	16g/	.	16b/	.	.	.	.	.	.	.
.	.	.	16g/	.	16b/	.	.	.	.	.	.	.
.	.	.	16g/JJ	.	16b/JJ	.	.	.	.	.	.	.
4GG/	.	.	16g/LL	.	16b/LL	.	.	.	4gg\	.	.	.
.	.	.	16g/	.	16b/	.	.	.	.	.	.	.
.	.	.	16g/	.	16b/	.	.	.	.	.	.	.
.	.	.	16g/JJ	.	16b/JJ	.	.	.	.	.	.	.
*	*	*	*Xtremolo	*	*Xtremolo	*	*	*	*	*	*	*
=60	=60	=60	=60	=60	=60	=60	=60	=60	=60	=60	=60	=60
*	*	*	*	*	*	*	*	*	*Xtuplet	*	*	*
8r	.	.	8.g/L	.	4b/	.	2ryy	.	24gg\LL	.	2ryy	2ryy
.	.	.	.	.	.	.	.	.	24ff#\	.	.	.
.	.	.	.	.	.	.	.	.	24gg\JJ	.	.	.
!LO:TX:a:t=P:problem:mixed beam	!	!	!	!	!	!	!	!	!	!	!	!
8c\L	6	.	.	.	.	.	.	.	24ee\LL	.	.	.
.	.	.	.	.	.	.	.	.	24dd\	.	.	.
.	.	.	16cc/Jk	.	.	.	.	.	.	.	.	.
.	.	.	.	.	.	.	.	.	24cc\JJ	.	.	.
8d\	6 4	.	8.b/L	.	8b/L	.	.	.	8b\L	.	.	.
8D/J	x 3	.	.	.	8a/J	.	.	.	8a\J	.	.	.
.	.	.	16a/Jk	.	.	.	.	.	.	.	.	.
=61	=61	=61	=61	=61	=61	=61	=61	=61	=61	=61	=61	=61
!LO:TX:a:t=P:problem:mixed beam	!	!LO:DY:rj	!	!	!LO:TX:a:t=P:problem:mixed beam	!	!	!	!	!	!	!
8G\L	.	f	16g/LL	.	16g/LL	f	2ryy	.	4g\	-tris	2ryy	2ryy
.	.	.	16b/	.	(16gg\	.	.	.	.	.	.	.
8G\	.	.	16a/	.	16ff#\	.	.	.	.	.	.	.
.	.	.	16b/JJ	.	16gg\JJ)	.	.	.	.	.	.	.
!	!	!	!LO:TX:a:t=P:problem:mixed beam	!	!LO:TX:a:t=P:problem:mixed beam	!	!	!	!	!	!	!
8d\	.	.	16cc\LL	.	16aa\LL	.	.	.	4r	.	.	.
.	.	.	16f#/	.	(16a/	.	.	.	.	.	.	.
8D/J	.	.	16g/	.	16b/	.	.	.	.	.	.	.
.	.	.	16a/JJ	.	16cc/JJ)	.	.	.	.	.	.	.
=62	=62	=62	=62	=62	=62	=62	=62	=62	=62	=62	=62	=62
!LO:TX:a:t=P:problem:mixed beam	!	!	!	!	!	!	!	!	!LO:TX:a:t=3	!	!	!
!	!	!	!	!	!	!	!	!	!LO:N:vis=0	!	!	!
8G\L	.	.	16g/LL	.	16b\LL	.	2ryy	.	1r	.	2ryy	2ryy
.	.	.	16b/	.	(16gg\	.	.	.	.	.	.	.
8G\	.	.	16a/	.	16ff#\	.	.	.	.	.	.	.
.	.	.	16b/JJ	.	16gg\JJ)	.	.	.	.	.	.	.
!	!	!	!LO:TX:a:t=P:problem:mixed beam	!	!LO:TX:a:t=P:problem:mixed beam	!	!	!	!	!	!	!
8d\	.	.	16cc\LL	.	16aa\LL	.	.	.	.	.	.	.
.	.	.	16f#/	.	(16a/	.	.	.	.	.	.	.
8D/J	.	.	16g/	.	16b/	.	.	.	.	.	.	.
.	.	.	16a/JJ	.	16cc/JJ)	.	.	.	.	.	.	.
=63	=63	=63	=63	=63	=63	=63	=63	=63	=63	=63	=63	=63
!LO:TX:a:t=P:problem:mixed beam	!	!	!	!	!LO:TUP:b:problem:klamra łukowa	!	!	!	!	!	!	!
8G\L	.	.	24g/LL	.	24b/LL	.	2ryy	.	.	.	2ryy	2ryy
.	.	.	24a/	.	24a/	.	.	.	.	.	.	.
.	.	.	24b/JJ	.	24b/JJ	.	.	.	.	.	.	.
!	!	!	!	!	!LO:TUP:b:problem:klamra łukowa	!	!	!	!	!	!	!
8c\	.	.	24cc/LL	.	24cc/LL	.	.	.	.	.	.	.
.	.	.	24b/	.	24b/	.	.	.	.	.	.	.
.	.	.	24a/JJ	.	24a/JJ	.	.	.	.	.	.	.
8d\	.	.	8g/L	.	8g/L	.	.	.	.	.	.	.
8D/J	.	.	8f#/J	.	8f#/J	.	.	.	.	.	.	.
=64	=64	=64	=64	=64	=64	=64	=64	=64	=64	=64	=64	=64
.	.	.	.	.	8qqf#/	.	.	.	.	.	.	.
8G\L	.	.	4g/	.	4g/	.	2ryy	.	2r	.	2ryy	2ryy
8D\J	.	.	.	.	.	.	.	.	.	.	.	.
!LO:TX:a:t=P:problem:podwójna kreska taktowa	!	!	!LO:TX:a:t=P:problem:podwójna kreska taktowa	!	!LO:TX:a:t=P:problem:podwójna kreska taktowa	!	!	!	!	!	!	!
!	!	!	!	!	!LO:TX:b:i:t=Quitollis Verte Cito	!	!	!	!	!	!	!
4GG/	.	.	4r	.	4r	.	.	.	.	.	.	.
!	!	!	!	!	!LO:PB:g=original	!	!	!	!LO:LB:g=original	!	!	!
=65	=65	=65	=65	=65	=65	=65	=65	=65	=65	=65	=65	=65
*clefF4	*	*	*clefG2	*	*	*	*	*	*	*	*	*
*k[e-b-]	*	*	*k[e-b-]	*	*k[e-b-]	*	*k[e-b-]	*	*k[e-b-]	*	*	*
*M4/4	*	*	*M4/4	*	*M4/4	*	*M4/4	*	*M4/4	*	*	*
*met(c)	*	*	*met(c)	*	*met(c)	*	*met(c)	*	*met(c)	*	*	*
!LO:TX:b:i:t=Quitollis	!	!	!LO:TX:b:i:t=Quitollis	!	!LO:TX:b:i:t=Quitollis	!	!	!	!LO:TX:a:t=P:problem:bemole ee- b-	!	!	!
!LO:TX:a:t=Ada Tutti	!	!	!LO:TX:a:t=Ada	!	!LO:TX:a:i:t=Ada	!	!LO:TX:a:t=Ada	!	!LO:TX:a:t=Ada	!	!	!
8G\L	.	.	16dd\LL	.	16dd\LL|	.	4G\	Qui	4dd\	Qui	1ryy	1ryy
.	.	.	16b-\	.	(16b-\	.	.	.	.	.	.	.
8G\	.	.	16a\	.	16a\)	.	.	.	.	.	.	.
.	.	.	16g\JJ	.	16g\JJ	.	.	.	.	.	.	.
8G\	.	.	16dd\LL	.	16dd\LL|	.	4G\	tol-	4dd\	tol-	.	.
.	.	.	16b-\	.	(16b-\	.	.	.	.	.	.	.
8G\J	.	.	16a\	.	16a\)	.	.	.	.	.	.	.
.	.	.	16g\JJ	.	16g\JJ	.	.	.	.	.	.	.
8F#X\L	.	.	16ee-X\LL	.	16ee-\LL|	.	4F#X\	-lis	4ee-X\	-lis	.	.
.	.	.	16cc\	.	(16cc\	.	.	.	.	.	.	.
8F#\	.	.	16b-\	.	16b-\)	.	.	.	.	.	.	.
.	.	.	16a\JJ	.	16a\JJ	.	.	.	.	.	.	.
8F#\	.	.	16ee-\LL	.	16ee-\LL|	.	4F#\	pec-	4ee-\	pec-	.	.
.	.	.	16cc\	.	(16cc\	.	.	.	.	.	.	.
8F#\J	.	.	16b-\	.	16b-\)	.	.	.	.	.	.	.
.	.	.	16a\JJ	.	16a\JJ	.	.	.	.	.	.	.
!	!	!	!LO:LB:g=original	!	!	!	!	!	!	!	!	!
=66	=66	=66	=66	=66	=66	=66	=66	=66	=66	=66	=66	=66
8G\L	.	.	16dd\LL	.	16dd\LL|	.	8G\L	-ca-	4dd\	-ca-	1ryy	1ryy
.	.	.	(16b-\	.	(16b-\	.	.	.	.	.	.	.
8G\	.	.	16a\)	.	16a\)	.	8A\J	.	.	.	.	.
.	.	.	16g\JJ	.	16g\JJ	.	.	.	.	.	.	.
8G\	.	.	16dd\LL	.	16dd\LL|	.	8B-\L	-ta	(8dd\	-ta	.	.
.	.	.	(16b-\	.	(16b-\	.	.	.	.	.	.	.
8G\J	.	.	16a\)	.	16a\)	.	8c\J	.	8cc\)	.	.	.
.	.	.	16g\JJ	.	16g\JJ	.	.	.	.	.	.	.
!LO:TX:a:t=P:problem:mixed beam	!	!	!	!	!	!	!	!	!	!	!	!
8d\L	6 4	.	8g/L	.	8b-/L	.	8d\	mun-	8b-\	mun-	.	.
8D/J	x 3	.	8f#X/J	.	8a/J	.	8D/	-di	8a\	-di	.	.
4r	.	.	4dd\	.	8dd\L	.	4r	.	8dd\	mi-	.	.
.	.	.	.	.	8gg\J	.	.	.	8dd\	-se-	.	.
!LO:LB:g=original	!	!	!	!	!	!	!	!	!	!	!	!
=67	=67	=67	=67	=67	=67	=67	=67	=67	=67	=67	=67	=67
4r	.	.	4ee-X\	.	4ee-X\	.	4r	.	4ee-X\	-re-	1ryy	1ryy
8G\L	.	.	4een\	.	4een\	.	8G\	mi-	4een\	-re	.	.
8c\J	.	.	.	.	.	.	8c\	-se-	.	.	.	.
8A\L	.	.	16ff\LL|	.	16ff\LL|	.	8A\	-re-	8ff\	no-	.	.
.	.	.	(16cc\	.	(16cc\	.	.	.	.	.	.	.
8F\	.	.	16b-\)	.	16b-\)	.	8F\	-re	8f/	-bis	.	.
.	.	.	16a\JJ	.	16a\JJ	.	.	.	.	.	.	.
8F\	.	.	16ff\LL|	.	16ff\LL|	.	8F\	sus-	8ff\	Sus-	.	.
.	.	.	(16cc\	.	(16cc\	.	.	.	.	.	.	.
8F\J	.	.	16b-\)	.	16b-\)	.	16F\	-ci-	16ff\	-ci-	.	.
.	.	.	16a\JJ	.	16a\JJ	.	16F\	-pe	16ff\	-pe	.	.
=68	=68	=68	=68	=68	=68	=68	=68	=68	=68	=68	=68	=68
*tremolo	*	*	*	*	*	*	*	*	*	*	*	*
8B-\L	.	.	16ff\LL|	.	16ff\LL|	.	8BB-/	de-	8ff\	de-	1ryy	1ryy
.	.	.	(16dd\	.	(16dd\	.	.	.	.	.	.	.
8B-\	.	.	16cc\)	.	16cc\)	.	8BB-/	-pre-	8ff\	-pre-	.	.
.	.	.	16b-\JJ	.	16b-\JJ	.	.	.	.	.	.	.
8B-\	.	.	16ff\LL|	.	16ff\LL|	.	8BB-/	-ca-	8ff\	-ca-	.	.
.	.	.	(16dd\	.	(16d\	.	.	.	.	.	.	.
8B-\J	.	.	16cc\)	.	16c\)	.	8BB-/	-ti-	8ff\	-ti-	.	.
.	.	.	16b-\JJ	.	16b-\JJ	.	.	.	.	.	.	.
!	!	!	!	!	!	!	!LO:LB:g=original	!	!	!	!	!
8F\L	7	.	16ff\LL|	.	16ff\LL|	.	4AA/	-o-	4ff\	-o-	.	.
.	.	.	(16cc\	.	(16cc\	.	.	.	.	.	.	.
8F\	.	.	16b-\)	.	16b-\)	.	.	.	.	.	.	.
.	.	.	16a\JJ	.	16a\JJ	.	.	.	.	.	.	.
8F\	.	.	16ff\LL|	.	16ff\LL|	.	4AA/	-nem	4ff\	-nem	.	.
.	.	.	(16cc\	.	(16cc\	.	.	.	.	.	.	.
8F\J	.	.	16b-\)	.	16b-\)	.	.	.	.	.	.	.
.	.	.	16a\JJ	.	16a\JJ	.	.	.	.	.	.	.
*Xtremolo	*	*	*	*	*	*	*	*	*	*	*	*
!	!	!	!	!	!LO:LB:g=original	!	!	!	!	!	!	!
=69	=69	=69	=69	=69	=69	=69	=69	=69	=69	=69	=69	=69
8B-\L	.	.	16b-'\LL	.	16b-\LL	.	2BB-/	no-	2b-\	no-	1ryy	1ryy
.	.	.	16b-'\	.	16b-\	.	.	.	.	.	.	.
8B-\	.	.	16b-'\	.	16b-\	.	.	.	.	.	.	.
.	.	.	16b-'\JJ	.	16b-\JJ	.	.	.	.	.	.	.
*	*	*	*tremolo	*	*tremolo	*	*	*	*	*	*	*
!	!	!	!LO:TX:a:t=...	!	!	!	!	!	!	!	!	!
8B-\	.	.	16a\LL	.	16b-\LL	.	.	.	.	.	.	.
.	.	.	16a\	.	16b-\	.	.	.	.	.	.	.
8B-\J	.	.	16a\	.	16b-\	.	.	.	.	.	.	.
.	.	.	16a\JJ	.	16b-\JJ	.	.	.	.	.	.	.
*	*	*	*	*	*Xtremolo	*	*	*	*	*	*	*
4B-\	.	.	16dd\LL	.	16dd\LL	.	4BB-/	-stram	4b-\	-stram	.	.
.	.	.	16b-\	.	16b-\	.	.	.	.	.	.	.
.	.	.	16ff\	.	16ff\	.	.	.	.	.	.	.
.	.	.	16dd\JJ	.	16dd\JJ	.	.	.	.	.	.	.
8r	.	.	4bb-\	.	4bb-\	.	4r	.	4r	.	.	.
8B-\	.	.	.	.	.	.	.	.	.	.	.	.
!	!	!	!	!	!	!	!	!	!LO:LB:g=original	!	!	!
=70	=70	=70	=70	=70	=70	=70	=70	=70	=70	=70	=70	=70
8c\L	.	.	16g/LL	.	16een\LL	.	8G\	Su-	8een\	Sus-	1ryy	1ryy
.	.	.	16g/	.	16ee\	.	.	.	.	.	.	.
8c\	.	.	16g/	.	16ee\	.	16G\	-sci-	16ee\	-ci-	.	.
.	.	.	16g/	.	16ee\JJ	.	16G\	-pe	16ee\	-pe	.	.
*	*	*	*	*	*tremolo	*	*	*	*	*	*	*
8c\	.	.	16g/	.	16ee\LL	.	8G\	de-	8ee\	de-	.	.
.	.	.	16g/	.	16ee\	.	.	.	.	.	.	.
8c\J	.	.	16g/	.	16ee\	.	8G\	-pre-	8ee\	-pre-	.	.
.	.	.	16g/JJ	.	16ee\JJ	.	.	.	.	.	.	.
*	*	*	*Xtremolo	*	*Xtremolo	*	*	*	*	*	*	*
4A\	.	.	8a/L	.	8ff\L	.	8A\	-ca-	8ff\	-ca-	.	.
.	.	.	8f/J	.	8cc\J	.	8F\	-ti-	8cc\	-ti-	.	.
!	!	!	!LO:TX:b:t=Verte	!	!	!	!	!	!	!	!	!
8r	.	.	4cc\	.	4ee-X\	.	8F\	-on-	8ee-X\	-o-	.	.
8F\	.	.	.	.	.	.	8F\	-em	8ee-\	-nem	.	.
!	!	!	!LO:PB:g=original	!	!	!	!	!	!	!	!	!
=71	=71	=71	=71	=71	=71	=71	=71	=71	=71	=71	=71	=71
8B-\L	.	.	16b-\LL	.	16dd\LL	.	(4B-\	no-	4dd\	no-	1ryy	1ryy
.	.	.	16b-\	.	16dd\	.	.	.	.	.	.	.
8B-\	.	.	16b-\	.	16dd\	.	.	.	.	.	.	.
.	.	.	16b-\JJ	.	16dd\JJ	.	.	.	.	.	.	.
*	*	*	*tremolo	*	*tremolo	*	*	*	*	*	*	*
8F\	7	.	16a/LL	.	16cc\LL	.	4A\)	.	4cc\	.	.	.
.	.	.	16a/	.	16cc\	.	.	.	.	.	.	.
8F\J	.	.	16a/	.	16cc\	.	.	.	.	.	.	.
.	.	.	16a/JJ	.	16cc\JJ	.	.	.	.	.	.	.
*	*	*	*Xtremolo	*	*Xtremolo	*	*	*	*	*	*	*
!	!	!	!LO:TX:a:t=P:problem:mixed beam	!	!	!	!	!	!	!	!	!
8B-\L	.	.	8b-/L	.	16b-\LL	.	8B-\	-stram	8b-\	-stram	.	.
.	.	.	.	.	16bb-\J	.	.	.	.	.	.	.
8B-\	.	.	16bb-\L	.	8b-\J	.	8BB-/	qui	8b-\	qui	.	.
.	.	.	16b-/JJ	.	.	.	.	.	.	.	.	.
!	!	!	!LO:TX:a:t=P:problem:mixed beam	!	!	!	!	!	!	!	!	!
8B-\	.	.	8b-/L	.	16b-\LL	.	8BB-/	se-	8b-\	se-	.	.
.	.	.	.	.	16bb-\J	.	.	.	.	.	.	.
8B-\J	.	.	16bb-\L	.	8b-\J	.	16BB-/	-des-	16a\	-des	.	.
.	.	.	16b-/JJ	.	.	.	16BB-/	-ad	16a\	ad	.	.
=72	=72	=72	=72	=72	=72	=72	=72	=72	=72	=72	=72	=72
*tremolo	*	*	*	*	*	*	*	*	*	*	*	*
8F\L	.	.	8cc\L	.	16cc\LL	.	8.E-\	dex-	8.cc\	dex-	1ryy	1ryy
.	.	.	.	.	16bb-\J	.	.	.	.	.	.	.
8F\	.	.	16bb-\L	.	8cc\J	.	.	.	.	.	.	.
.	.	.	16cc\JJ	.	.	.	16E-\	-te-	16cc\	-te-	.	.
8F\	.	.	8cc\L	.	16cc\LL	.	4F\	-ram	4cc\	-ram	.	.
.	.	.	.	.	16bb-\J	.	.	.	.	.	.	.
8F\J	.	.	16bb-\L	.	8cc\J	.	.	.	.	.	.	.
.	.	.	16cc\JJ	.	.	.	.	.	.	.	.	.
8F\L	7	.	8cc\L	.	16cc\LL	.	2F\	Pa-	2cc\	Pa-	.	.
.	.	.	.	.	16ff\J	.	.	.	.	.	.	.
8F\	.	.	16ff\L	.	8cc\J	.	.	.	.	.	.	.
.	.	.	16cc\JJ	.	.	.	.	.	.	.	.	.
8F\	.	.	8cc\L	.	16cc\LL	.	.	.	.	.	.	.
.	.	.	.	.	16ff\J	.	.	.	.	.	.	.
8F\J	.	.	16ff\L	.	8cc\J	.	.	.	.	.	.	.
.	.	.	16cc\JJ	.	.	.	.	.	.	.	.	.
*Xtremolo	*	*	*	*	*	*	*	*	*	*	*	*
=73	=73	=73	=73	=73	=73	=73	=73	=73	=73	=73	=73	=73
8B-\L	.	.	16dd\LL|	.	16dd\LL|	.	4BB-/	-tris	4dd\	-tris	1ryy	1ryy
.	.	.	(16b-\	.	(16g\	.	.	.	.	.	.	.
8G\	.	.	16a\)	.	16f\)	.	.	.	.	.	.	.
.	.	.	16g\JJ	.	16e-\JJ	.	.	.	.	.	.	.
8G\	.	.	16dd\LL|	.	16dd\LL|	.	8G\	mi-	8dd\	mi-	.	.
.	.	.	(16b-\	.	(16g\	.	.	.	.	.	.	.
8G\J	.	.	16a\)	.	16f\)	.	8G\	-se-	8dd\	-se-	.	.
.	.	.	16g\JJ	.	16e-\JJ	.	.	.	.	.	.	.
!	!	!	!	!	!	!	!LO:LB:g=original	!	!	!	!	!
8F#X\L	-7	.	16ee-\LL|	.	16ee-\LL|	.	4F\	-re-	4ee-X\	-re-	.	.
.	.	.	(16cc\	.	(16cc\	.	.	.	.	.	.	.
8F#\	.	.	16b-\)	.	16b-\)	.	.	.	.	.	.	.
.	.	.	16a\JJ	.	16a\JJ	.	.	.	.	.	.	.
!	!	!	!	!	!LO:LB:g=original	!	!	!	!	!	!	!
8F#\	.	.	16ee-\LL|	.	16ee-\LL|	.	4F\	-re	4ee-\	-re	.	.
.	.	.	(16cc\	.	(16cc\	.	.	.	.	.	.	.
8F#\J	.	.	16b-\)	.	16b-\)	.	.	.	.	.	.	.
.	.	.	16a\JJ	.	16a\JJ	.	.	.	.	.	.	.
!	!	!	!	!	!	!	!	!	!LO:LB:g=original	!	!	!
=74	=74	=74	=74	=74	=74	=74	=74	=74	=74	=74	=74	=74
*tremolo	*	*	*	*	*	*	*	*	*	*	*	*
!	!	!	!	!	!LO:TX:a:t=P:problem:mixed beam	!	!	!	!	!	!	!
8D\L	.	.	16a/LL	.	16ff#X\LL	.	2D\	no-	2ff#X\	no-	1ryy	1ryy
.	.	.	16d/	.	16a/	.	.	.	.	.	.	.
8D\	.	.	16a/	.	16ff#\	.	.	.	.	.	.	.
.	.	.	16d/JJ	.	16a/JJ	.	.	.	.	.	.	.
!	!	!	!	!	!LO:TX:a:t=P:problem:mixed beam	!	!	!	!	!	!	!
8D\	.	.	16a/LL	.	16ff#\LL	.	.	.	.	.	.	.
.	.	.	16d/	.	16a/	.	.	.	.	.	.	.
8D\J	.	.	16a/	.	16ff#\	.	.	.	.	.	.	.
.	.	.	16d/JJ	.	16a/JJ	.	.	.	.	.	.	.
*Xtremolo	*	*	*	*	*	*	*	*	*	*	*	*
4G\	.	.	4gg 4bn 4d/	.	4gg 4bn 4d 4G/	.	4G\	-bis	4gg\	-bis	.	.
4r	.	.	4r	.	4r	.	4r	.	4r	.	.	.
!	!	!	!LO:LB:g=original	!	!	!	!	!	!	!	!	!
=75||	=75||	=75||	=75||	=75||	=75||	=75||	=75||	=75||	=75||	=75||	=75||	=75||
*k[f#c#]	*	*	*k[f#c#]	*	*k[c#f#]	*	*k[f#c#]	*	*k[c#f#]	*	*k[f#c#]	*k[f#c#]
*M4/4	*	*	*M4/4	*	*M4/4	*	*M4/4	*	*M4/4	*	*M4/4	*M4/4
*met(c)	*	*	*met(c)	*	*met(c)	*	*met(c)	*	*met(c)	*	*met(c)	*met(c)
!	!	!	!	!	!LO:TX:a:t=P:problem:krzyżyki cc# a#	!	!	!	!LO:TX:a:t=P:problem:krzyżyki cc# f#	!	!	!
!LO:TX:b:i:t=Quoniam	!	!	!LO:TX:b:i:t=Quoniam	!	!LO:TX:b:i:t=Quoniam	!	!	!	!LO:TX:a:t=Solo	!	!LO:TX:b:i:t=Quoniam	!LO:TX:b:i:t=Quoniam
!LO:TX:a:i:t=Allo	!	!	!LO:TX:a:i:t=Allo	!	!LO:TX:a:t=Allo	!	!LO:TX:a:t=Allo	!	!LO:TX:a:t=Allo	!	!LO:TX:a:i:t=Allo	!LO:TX:a:t=Allo
8d\L	.	.	8dd\L	.	8dd\L	.	8d\	Quo-	2r	.	2r	2r
16c#\L	.	.	16cc#\L	.	16cc#\L	.	16c#\LL	-ni-	.	.	.	.
16B\JJ	.	.	16b\JJ	.	16b\JJ	.	16B\JJ	.	.	.	.	.
8A\L	.	.	8a/L	.	8a/L	.	8A\	-am	.	.	.	.
8G\J	.	.	8g/J	.	8g/J	.	8G\	tu	.	.	.	.
8F#\L	.	.	8f#/L	.	8f#/L	.	8F#\	so-	4r	.	4r	4r
8D\J	.	.	8d/J	.	8d/J	.	8D\	-lus	.	.	.	.
4r	.	.	8r	.	8r	.	4r	.	8r	.	8r	8r
.	.	.	8dd\	.	8ff#\	.	.	.	8ff#\	Tu	8d\	8f#\
!LO:LB:g=original	!	!	!	!	!	!	!	!	!	!	!	!
=76	=76	=76	=76	=76	=76	=76	=76	=76	=76	=76	=76	=76
!	!	!	!	!	!	!LO:DY:rj	!	!	!	!	!	!
2r	.	.	8cc#\L	.	8ee\L	p	2r	.	8ee\	So-	8G\L	8e\L
.	.	.	8dd\	.	8ff#\	.	.	.	8ff#\	-lus	8d\	8f#\
.	.	.	8ee\	.	8gg\	.	.	.	8gg\	So-	8e\	8g\
.	.	.	8dd\J	.	8ff#\J	.	.	.	8ff#\	-lus	8d\J	8f#\J
8r	.	.	8dd\L	.	8ff#\L	.	4r	.	8ff#\	San-	8d\L	8e\L
8A\L	.	.	8cc#\J	.	8ee\J	.	.	.	8ee\	-ctus	8A\J	8d\J
8B\	.	.	8r	.	8r	.	8r	.	8r	.	4r	4r
8c#\J	.	.	8cc#\	.	8ee\	.	8c#\	tu	8ee\	tu	.	.
=77	=77	=77	=77	=77	=77	=77	=77	=77	=77	=77	=77	=77
*	*	*	*	*	*	*	*	*	*	*	*2\right	*2\right
!LO:TX:a:t=P:problem:mixed beam	!	!	!	!	!	!	!	!	!	!	!	!
8d\L	.	.	8dd\	.	8ff#\	.	8d\	so-	8ff#\	So-	2d\	2f#\
8D/J	.	.	4dd\	.	4dd\	.	(4B\	-lus	4dd\	-lus	.	.
8r	.	.	.	.	.	.	.	.	.	.	.	.
!LO:TX:a:t=P:problem:mixed beam	!	!	!	!	!	!	!	!	!	!	!	!
8B\L	.	.	16cc#\LL	.	16cc#\LL	.	16A\LL)	.	16cc#\LL	.	.	.
.	.	.	16b\JJ	.	16b\JJ	.	16B\JJ	.	16b\JJ	.	.	.
8c#\	.	.	8ee\	.	8ee\	.	8c#\	Do-	8ee\	Do-	2A/	2e\
8C#/J	.	.	4cc#\	.	4cc#\	.	4A\	-mi-	4cc#\	-mi-	.	.
8r	.	.	.	.	.	.	.	.	.	.	.	.
8A\	.	.	16b\LL	.	16b\LL	.	(16G#X\LL	.	16b\LL	-nus	.	.
.	.	.	16a\JJ	.	16a\JJ	.	16A\JJ)	.	16a\JJ	.	.	.
=78	=78	=78	=78	=78	=78	=78	=78	=78	=78	=78	=78	=78
!	!	!	!	!	!	!	!	!	!	!	!	!LO:TX:a:t=8
8B\L	.	.	8.b/L	.	8.dd\L	.	8B\	-nus	8dd\	So-	00r	00r
8E\	7	.	.	.	.	.	8B\	al-	8dd\	-lus	.	.
.	.	.	16b/Jk	.	16dd\Jk	.	.	.	.	.	.	.
8E\	.	.	8.a/L	.	4a\	.	8A\	-tiſ-	8cc#\	al-	.	.
8E\J	.	.	.	.	.	.	8G#X\	-si-	8b\	-tiſ-	.	.
.	.	.	16g#X/Jk	.	.	.	.	.	.	.	.	.
!	!	!	!	!	!LO:LB:g=original	!	!	!	!LO:PB:g=original	!	!	!
4A\	.	.	16a/LL	.	16cc#\LL	.	8A\	-mus	16cc#\LL	-si-	.	.
.	.	.	16cc#/	.	16ee\	.	.	.	16ee\JJ	.	.	.
.	.	.	16dd/	.	16ff#\	.	8B\	Je-	16ff#\LL	.	.	.
.	.	.	16b/JJ	.	16gg#X\JJ	.	.	.	16gg#X\JJ	.	.	.
4D\	.	.	8cc#/L	.	8aa\L	.	8c#\	-su	8aa\	-mus	.	.
.	.	.	8b/J	.	8dd\J	.	8B\	.	8dd\	Je-	.	.
!	!	!	!	!	!	!	!LO:LB:g=original	!	!	!	!	!
=79	=79	=79	=79	=79	=79	=79	=79	=79	=79	=79	=79	=79
4E\	9 4	.	4a/	.	8cc#\L	.	8G\	Je-	8cc#\L	-su	.	.
.	.	.	.	.	16b\L	.	8D\	-su	16b\L	.	.	.
.	.	.	.	.	16a\JJ	.	.	.	16a\JJ	.	.	.
!	!	!	!	!	!LO:TX:a:t=P:problem:mixed beam	!	!	!	!	!	!	!
4EE/	x 3	.	4g#X/	.	8ee\L	.	4E\	Chris-	4b\	chri-	.	.
.	.	.	.	.	8e/J	.	.	.	.	.	.	.
8AA/L	.	.	8a/L	.	8a\L	.	4AA/	-te	4a\	-ste	.	.
16BB/L	.	.	16b/L	.	16b\L	.	.	.	.	.	.	.
16C#/JJ	.	.	16cc#/JJ	.	16cc#\JJ	.	.	.	.	.	.	.
16D/LL	.	.	16dd\LL	.	16dd\LL	.	4r	.	4r	.	.	.
16E/	.	.	16ee\	.	16ee\	.	.	.	.	.	.	.
16F#/	.	.	16ff#\	.	16ff#\	.	.	.	.	.	.	.
16G#X/JJ	.	.	16gg#X\JJ	.	16gg#X\JJ	.	.	.	.	.	.	.
=80	=80	=80	=80	=80	=80	=80	=80	=80	=80	=80	=80	=80
!LO:TX:a:t=P:problem:mixed beam	!	!	!LO:TX:a:t=P:problem:mixed beam	!	!LO:TX:a:t=P:problem:mixed beam	!	!LO:TX:a:t=3	!	!LO:TX:a:t=3	!	!	!
8A\L	.	.	8aa\L	.	8aa\L	.	0r	.	0r	.	.	.
8AA/J	.	.	8a/J	.	8a/J	.	.	.	.	.	.	.
4r	.	.	8r	.	8r	.	.	.	.	.	.	.
.	.	.	8cc#\	.	8aa\	.	.	.	.	.	.	.
!	!	!	!LO:LB:g=original	!	!	!	!	!	!	!	!	!
2r	.	.	8b\L	.	8gg#X\L	.	.	.	.	.	.	.
.	.	.	8cc#\	.	8aa\	.	.	.	.	.	.	.
.	.	.	8dd\	.	8bb\	.	.	.	.	.	.	.
.	.	.	8cc#\J	.	8aa\J	.	.	.	.	.	.	.
=81	=81	=81	=81	=81	=81	=81	=81	=81	=81	=81	=81	=81
8r	.	.	8cc#\L	.	8aa\L	.	.	.	.	.	.	.
16E\LL	.	.	8b\J	.	8gg#X\J	.	.	.	.	.	.	.
16D\JJ	.	.	.	.	.	.	.	.	.	.	.	.
8C#/L	.	.	8r	.	8r	.	.	.	.	.	.	.
8AA/J	.	.	8ee\	f	8ee\	.	.	.	.	.	.	.
8D\L	6 3	.	16ff#\LL	.	16ff#\LL	.	.	.	.	.	.	.
.	.	.	16dd\	.	16dd\	.	.	.	.	.	.	.
8D\	.	.	16cc#\	.	16cc#\	.	.	.	.	.	.	.
.	.	.	16dd\JJ	.	16dd\JJ	.	.	.	.	.	.	.
8D\	.	.	16ff#\LL	.	16ff#\LL	.	.	.	.	.	.	.
.	.	.	16bb\	.	16bb\	.	.	.	.	.	.	.
8D\J	6	.	16aa\	.	16aa\	.	.	.	.	.	.	.
.	.	.	16bb\JJ	.	16bb\JJ	.	.	.	.	.	.	.
=82	=82	=82	=82	=82	=82	=82	=82	=82	=82	=82	=82	=82
8E\L	5 3	.	16gg#X\LL	.	16gg#X\LL	.	1r	.	1r	.	00r	00r
.	.	.	16ee\	.	16ee\	.	.	.	.	.	.	.
8D\	.	.	16ff#\	.	16ff#\	.	.	.	.	.	.	.
.	.	.	16gg#\JJ	.	16gg#\JJ	.	.	.	.	.	.	.
8C#\	.	.	8aa\L	.	8aa\L	.	.	.	.	.	.	.
8D\J	.	.	8dd\J	.	8dd\J	.	.	.	.	.	.	.
.	.	.	.	.	8qqdd/	.	.	.	.	.	.	.
4E\	6 4	.	8cc#/L	.	8cc#\L	.	.	.	.	.	.	.
.	.	.	8a/J	.	16b\L	.	.	.	.	.	.	.
.	.	.	.	.	16a\JJ	.	.	.	.	.	.	.
!	!	!	!	!	!LO:TX:a:t=P:problem:mixed beam	!	!	!	!	!	!	!
4EE/	x 3	.	4g#X/	.	8ee\L	.	.	.	.	.	.	.
.	.	.	.	.	8e/J	.	.	.	.	.	.	.
=83	=83	=83	=83	=83	=83	=83	=83	=83	=83	=83	=83	=83
8A\L|	.	.	8aa\L	.	8aa\L	.	8A\	Quo-	8aa\	Quo-	.	.
16G#X\L|	.	.	16gg#X\L	.	16gg\L	.	16G#X\LL	-ni-	16gg#X\LL	-ni-	.	.
16F#\JJ|	.	.	16ff#\JJ	.	16ff#\JJ	.	16F#\JJ	.	16ff#\JJ	.	.	.
8E\L|	.	.	8ee\L	.	8ee\L	.	8E\	-am	8ee\	-am	.	.
8D\J|	.	.	8dd\J	.	8dd\J	.	8D\	tu	8dd\	tu	.	.
!	!	!	!	!	!LO:LB:g=original	!	!	!	!	!	!	!
8C#/L	.	.	8cc#\L	.	8cc#\L	.	8C#/	so-	8cc#\	so-	.	.
16AA/L	.	.	8a\J	.	8a\J	.	8AA/	-lus	8a\	-lus	.	.
16BB/JJ	.	.	.	.	.	.	.	.	.	.	.	.
8C#/L	.	.	8r	.	8r	.	8r	.	8r	.	.	.
8AA/J	.	.	8a/	.	8cc#\	.	8A\	tu	8cc#\	tu	.	.
=84	=84	=84	=84	=84	=84	=84	=84	=84	=84	=84	=84	=84
*tremolo	*	*	*	*	*	*	*	*	*	*	*	*
8E\L	7	.	4g/	.	4b\	.	4G\	so-	4b\	So-	.	.
8E\	.	.	.	.	.	.	.	.	.	.	.	.
8E\	.	.	8a/L	.	8cc#\L	.	8A\L	-lus	8cc#\L	-lus	.	.
8E\J	.	.	8b/J	.	8dd\J	.	8B\J	.	8dd\J	.	.	.
*Xtremolo	*	*	*	*	*	*	*	*	*	*	*	*
8A\L	.	.	8a/L	.	16cc#\LL	.	8A\	San-	8cc#\	San-	.	.
.	.	.	.	.	16a\	.	.	.	.	.	.	.
8E\	.	.	16cc#/L	.	16cc#\	.	8c#\	-ctus	8ee\	-ctus	.	.
.	.	.	16ee/JJ	.	16ee\JJ	.	.	.	.	.	.	.
!	!	!	!LO:TX:a:t=P:problem:mixed beam	!	!	!	!	!	!	!	!	!
8C#\	.	.	8aa\L	.	8aa\L	.	8r	.	8r	.	.	.
8AA\J	.	.	8a/J	.	8cc#\J	.	8A\	tu	8cc#\	tu	.	.
=85	=85	=85	=85	=85	=85	=85	=85	=85	=85	=85	=85	=85
8E\L	7	.	4g/	.	4b\	.	8G\	Sol-	(4b\	So-	.	.
8E\	.	.	.	.	.	.	8G\	-lus	.	.	.	.
8E\	.	.	8a/L	.	8cc#\L	.	8A\	Do-	8cc#\	-lus	.	.
8E\J	.	.	8b/J	.	8dd\J	.	8B\	-mi-	8dd\)	.	.	.
!LO:LB:g=original	!	!	!	!	!	!	!	!	!LO:LB:g=original	!	!	!
8A\L	.	.	4a/	.	16cc#\LL	.	4A\	-nus	16cc#\	Do-	.	.
.	.	.	.	.	16b\J	.	.	.	16b\	-mi-	.	.
8E\	.	.	.	.	8a\J	.	.	.	8a\	-nus	.	.
8C#\	.	.	8r	.	8r	.	8r	.	8r	.	.	.
8AA\J	.	.	8a/	.	8a/	.	8A\	tu	8a\	tu	.	.
=86	=86	=86	=86	=86	=86	=86	=86	=86	=86	=86	=86	=86
*tremolo	*	*	*	*	*	*	*	*	*	*	*	*
8AA/L	.	.	16ee\LL	.	16gg\LL	.	4c#\	so-	4ee\	So-	4e\	4g\
.	.	.	16ee\	.	16gg\	.	.	.	.	.	.	.
8AA/	.	.	16cc#\	.	16ee\	.	.	.	.	.	.	.
.	.	.	16cc#\JJ	.	16ee\JJ	.	.	.	.	.	.	.
!	!	!	!LO:LB:g=original	!	!	!	!	!	!	!	!	!
8AA/	.	.	4a/	.	16cc#\LL	.	8c#\	-lus	8ee\	-lus	4A/	4e\
.	.	.	.	.	16cc#\	.	.	.	.	.	.	.
8AA/J	.	.	.	.	16a\	.	8c#\	al-	8ee\	Al-	.	.
.	.	.	.	.	16a\JJ	.	.	.	.	.	.	.
8AA/L	6 4	.	16ff#\LL	.	16aa\LL	.	4d\	-tiſ-	4ff#\	-tiſ-	4f#\	4a\
.	.	.	16ff#\	.	16aa\	.	.	.	.	.	.	.
8AA/	.	.	16dd\	.	16ff#\	.	.	.	.	.	.	.
.	.	.	16dd\JJ	.	16ff#\JJ	.	.	.	.	.	.	.
8AA/	.	.	4a/	.	16dd\LL	.	4d\	-si-	4ff#\	-si-	4d\	4f#\
.	.	.	.	.	16dd\	.	.	.	.	.	.	.
8AA/J	.	.	.	.	16a\	.	.	.	.	.	.	.
.	.	.	.	.	16a\JJ	.	.	.	.	.	.	.
!	!	!	!	!	!	!	!	!	!	!	!LO:LB:g=original	!
=87	=87	=87	=87	=87	=87	=87	=87	=87	=87	=87	=87	=87
8AA/L	7 5	.	16gg\LL	.	16gg\LL	.	4e\	-mus	4gg\	-mus	4e\	4g\
.	.	.	16gg\	.	16gg\	.	.	.	.	.	.	.
8AA/	.	.	16ee\	.	16ee\	.	.	.	.	.	.	.
.	.	.	16ee\JJ	.	16ee\JJ	.	.	.	.	.	.	.
8AA/	.	.	4a/	.	16cc#\LL	.	8r	.	8r	.	4A/	4e\
.	.	.	.	.	16cc#\	.	.	.	.	.	.	.
8AA/J	.	.	.	.	16a\	.	8A\	Je-	8ee\	Je-	.	.
.	.	.	.	.	16a\JJ	.	.	.	.	.	.	.
*Xtremolo	*	*	*	*	*	*	*	*	*	*	*	*
!	!	!	!	!	!	!	!LO:LB:g=original	!	!	!	!	!LO:LB:g=original
8D\L	.	.	4dd\	.	8ff#\L	.	8d\L	-su	8ff#\	.	4d\	8f#\L
8F#\	.	.	.	.	8dd\J	.	8F#\J	.	8cc#\	-su	.	8d\J
8G\	.	.	4cc#\	.	4ee\	.	8G\L	Chri-	4ee\	chris-	4A/	4e\
8A\J	.	.	.	.	.	.	8A\J	.	.	.	.	.
=88	=88	=88	=88	=88	=88	=88	=88	=88	=88	=88	=88	=88
8d\L|	.	.	8dd\L	.	8dd\L	.	4D\	-ste	4dd\	-te	4F#/	4d\
16c#\L|	.	.	16cc#\L	.	16cc#\L	.	.	.	.	.	.	.
16B\JJ|	.	.	16b\JJ	.	16b\JJ	.	.	.	.	.	.	.
8A\L|	.	.	8a/L	.	8a/L	.	4r	.	4r	.	4r	4r
8G\J|	.	.	8g/J	.	8g/J	.	.	.	.	.	.	.
!	!	!	!	!	!LO:LB:g=original	!	!	!	!	!	!	!
8F#\L|	.	.	8f#/L	.	8f#/L	.	2r	.	2r	.	4r	4r
8D\J|	.	.	8d/J	.	8d/J	.	.	.	.	.	.	.
4r	.	.	8r	.	8r	.	.	.	.	.	8r	8r
.	.	.	8dd\	.	8ff#\	.	.	.	.	.	8d\	8f#\
=89	=89	=89	=89	=89	=89	=89	=89	=89	=89	=89	=89	=89
2r	.	.	8cc#\	.	8ee\	.	0r	.	0r	.	8A/	8d\
.	.	.	4cc#\	.	4ee\	.	.	.	.	.	4A/	4e\
.	.	.	24dd\LL	.	8ff#\	.	.	.	.	.	8d\	8f#\
.	.	.	24cc#\	.	.	.	.	.	.	.	.	.
.	.	.	24dd\JJ	.	.	.	.	.	.	.	.	.
4r	.	.	4ee\	.	4gg\	.	.	.	.	.	4e\	4g\
8r	.	.	16r	.	16r	.	.	.	.	.	4r	4r
.	.	.	16ee\LL	.	16gg\LL	.	.	.	.	.	.	.
8A\	.	.	16dd\	.	16ff#\	.	.	.	.	.	.	.
.	.	.	16cc#\JJ	.	16ee\JJ	.	.	.	.	.	.	.
=90	=90	=90	=90	=90	=90	=90	=90	=90	=90	=90	=90	=90
4d\	.	.	4dd\	.	8ff#\L	.	.	.	.	.	4d\	4f#\
.	.	.	.	.	16ee\L	.	.	.	.	.	.	.
.	.	.	.	.	16dd\JJ	.	.	.	.	.	.	.
4A\	.	.	4cc#\	.	4ee\	.	.	.	.	.	4A/	4e\
!	!	!	!	!	!	!	!	!	!	!	!	!LO:TX:a:t=P:problem:mixed beam
8D\L	.	.	8dd\L	.	8dd\L	.	.	.	.	.	8d/L	8d\L
8B\	.	.	8a\	.	8b\	.	.	.	.	.	16A/L	16A/L
.	.	.	.	.	.	.	.	.	.	.	16A/JJ	16A/JJ
8G\	.	.	8g\	.	8g\	.	.	.	.	.	8F#/L	8F#/L
8A\J	.	.	8a\J	.	8a\J	.	.	.	.	.	8F#/J	8F#/J
=91	=91	=91	=91	=91	=91	=91	=91	=91	=91	=91	=91	=91
!	!	!	!	!	!	!	!LO:TX:a:t=P:problem:brak taktu	!	!	!	!	!
4D\	.	.	4d/	.	4d/	.	1ryy	.	1r	.	4D/	4D/
4r	.	.	4r	.	4r	.	.	.	.	.	4r	4r
2r	.	.	2r	.	2rg	.	.	.	.	.	2r	2rg
!	!	!	!LO:LB:g=original	!	!	!	!	!	!	!	!	!
=92||	=92||	=92||	=92||	=92||	=92||	=92||	=92||	=92||	=92||	=92||	=92||	=92||
*k[f#c#]	*	*	*k[c#f#]	*	*k[f#c#]	*	*k[f#c#]	*	*k[c#f#]	*	*k[f#c#]	*k[f#c#]
*M4/4	*	*	*M4/4	*	*M4/4	*	*M4/4	*	*M4/4	*	*M4/4	*M4/4
*met(c)	*	*	*met(c)	*	*met(c)	*	*met(c)	*	*met(c)	*	*met(c)	*met(c)
!	!	!	!LO:TX:a:t=P:problem:krzyżyki cc# f#	!	!LO:TX:a:t=P:problem:krzyżyki cc# f# jeden pod drugim	!	!	!	!LO:TX:a:t=P:problem:krzyżyki cc# f#	!	!	!
!LO:TX:b:i:t=Cum Sancto	!	!	!LO:TX:b:i:t=Cum Sancto	!	!LO:TX:b:i:t=Cum Sancto	!	!	!	!	!	!LO:TX:b:i:t=Cum Sancto	!LO:TX:b:i:t=Cum Sancto
!	!	!	!LO:TX:a:t=Ada	!	!LO:TX:a:t=Ada	!	!LO:TX:a:t=Ada	!	!LO:TX:a:t=Allo	!	!LO:TX:a:t=Ada	!LO:TX:a:t=Ada
8D\L	.	.	8dd\L	.	8ff#\L	.	2D\	Cum	2ff#\	Cum	4d\	4f#\
8D\	.	.	8dd\	.	8ff#\	.	.	.	.	.	.	.
8D\	.	.	8dd\	.	8ff#\	.	.	.	.	.	4d\	4f#\
8D\J	.	.	8dd\J	.	8ff#\J	.	.	.	.	.	.	.
*tremolo	*	*	*	*	*tremolo	*	*	*	*	*	*	*
*	*	*	*	*	*2\right	*	*	*	*	*	*	*
8D\L	.	.	8dd\L	.	8ff#\L	.	4D\	San-	4ff#\	San-	4d\	4f#\
8D\	.	.	8dd\	.	8ff#\	.	.	.	.	.	.	.
8D\	.	.	8dd\	.	8ff#\	.	4D\	-cto	4ff#\	-cto	4r	4r
8D\J	.	.	8dd\J	.	8ff#\J	.	.	.	.	.	.	.
=93	=93	=93	=93	=93	=93	=93	=93	=93	=93	=93	=93	=93
8A\L	.	.	8cc#\L	.	8ee\L	.	4.A\	Spi-	4.ee\	Spi-	4A/	4e\
8A\	.	.	8cc#\	.	8ee\	.	.	.	.	.	.	.
8A\	.	.	8cc#\	.	8ee\	.	.	.	.	.	8A/L	8e\L
8A\J	.	.	8cc#\J	.	8ee\J	.	8A\	-ri-	8ee\	-ri-	8A/J	8e\J
*Xtremolo	*	*	*2\right	*	*Xtremolo	*	*	*	*	*	*	*
!	!	!	!	!	!	!	!	!	!LO:LB:g=original	!	!	!
2A\	.	.	2cc#\	.	2ee\	.	2A\	-tu	2ee\	-tu	2A/	2e\
!	!	!	!	!	!	!	!	!	!	!	!LO:LB:g=original	!LO:LB:g=original
=94||	=94||	=94||	=94||	=94||	=94||	=94||	=94||	=94||	=94||	=94||	=94||	=94||
*M2/4	*	*	*M2/4	*	*M2/4	*	*M2/4	*	*M2/4	*	*M2/4	*M2/4
*	*	*	*	*	*	*	*k[c#f#]	*	*	*	*	*
!LO:TX:b:i:t=in gloria	!	!	!LO:TX:b:i:t=In gloria	!	!LO:TX:b:i:t=In gloria	!	!	!	!	!	!LO:TX:b:i:t=In gloria	!LO:TX:b:i:t=In Gloria
!	!	!	!LO:TX:a:t=allo	!	!LO:TX:a:i:t=Allo	!	!LO:TX:a:t=Allo	!	!LO:TX:a:t=Allo	!	!LO:TX:a:t=Allo	!
8d\	.	.	8dd\	.	8ff#\	.	8d\	In	8ff#\	in	8r	8r
=95	=95	=95	=95	=95	=95	=95	=95	=95	=95	=95	=95	=95
!LO:TX:a:t=P:problem:mixed beam	!	!	!	!	!	!	!	!	!	!	!	!
8A\L	.	.	8.cc#\L	.	8ee\L	.	4A\	glo-	4ee\	glo-	2r	2r
8AA/	.	.	.	.	8ee\	.	.	.	.	.	.	.
.	.	.	16cc#\Jk	.	.	.	.	.	.	.	.	.
8d\	.	.	8.dd\L	.	8ff#\	.	4d\	-ri-	4ff#\	-ri-	.	.
8D/J	.	.	.	.	8ff#\J	.	.	.	.	.	.	.
.	.	.	16dd\Jk	.	.	.	.	.	.	.	.	.
!	!	!	!	!	!LO:LB:g=original	!	!	!	!	!	!	!
=96	=96	=96	=96	=96	=96	=96	=96	=96	=96	=96	=96	=96
8A\L	.	.	4cc#\	.	4ee\	.	4A\	-a	4ee\	-a	8A\L	8e\L
8B\	.	.	.	.	.	.	.	.	.	.	8A\	8e\
8c#\	.	.	8r	.	8r	.	8r	.	8r	.	8d\	8f#\
8d\J	.	.	8dd\	.	8ff#\	.	8d\	in	8ff#\	in	8d\J	8f#\J
=97	=97	=97	=97	=97	=97	=97	=97	=97	=97	=97	=97	=97
!LO:TX:a:t=P:problem:mixed beam	!	!	!	!	!	!	!	!	!	!	!	!
8A\L	.	.	8.cc#\L	.	8.ee\L	.	4A\	glo-	4ee\	glo-	4A/	4e\
8AA/	.	.	.	.	.	.	.	.	.	.	.	.
.	.	.	16cc#\Jk	.	16ee\	.	.	.	.	.	.	.
8d\	.	.	8.dd\L	.	8.ff#\	.	4d\	-ri-	4ff#\	-ri-	4r	4r
8D/J	.	.	.	.	.	.	.	.	.	.	.	.
.	.	.	16dd\Jk	.	16ff#\Jk	.	.	.	.	.	.	.
=98	=98	=98	=98	=98	=98	=98	=98	=98	=98	=98	=98	=98
8A\L	.	.	4cc#\	.	4ee\	.	4A\	-a	4ee\	-a	8A/L	8e\L
8E\J	.	.	.	.	.	.	.	.	.	.	8A/	8e\
8C#/L	.	.	8r	.	8r	.	8r	.	8r	.	8d/	8f#\
8AA/J	.	.	8a/	.	8a/	.	8A\	in	8a\	in	8d/J	8f#\J
!LO:LB:g=original	!	!	!	!	!	!	!	!	!	!	!	!
=99	=99	=99	=99	=99	=99	=99	=99	=99	=99	=99	=99	=99
*tremolo	*	*	*	*	*	*	*	*	*	*	*	*
!	!	!	!	!	!LO:N:vis=16.	!	!	!	!	!	!	!
8AA/L	7	.	16ee\LL	.	16gg\LL	.	4A\	glo-	4ee\	glo-	4e\	4g\
.	.	.	16ee\	.	16gg\	.	.	.	.	.	.	.
8AA/	.	.	16ee\	.	16ee\	.	.	.	.	.	.	.
.	.	.	16ee\JJ	.	16ee\JJ	.	.	.	.	.	.	.
*	*	*	*tremolo	*	*	*	*	*	*	*	*	*
8AA/	.	.	16ee\LL	.	16cc#\LL	.	8A\	-ri-	8ee\	-ri-	4G/	4e\
.	.	.	16ee\	.	16cc#\	.	.	.	.	.	.	.
8AA/J	.	.	16ee\	.	16a\	.	8A\	-a	8ee\	-a	.	.
.	.	.	16ee\JJ	.	16a\JJ	.	.	.	.	.	.	.
!	!	!	!	!	!	!	!LO:LB:g=original	!	!	!	!	!
=100	=100	=100	=100	=100	=100	=100	=100	=100	=100	=100	=100	=100
*	*	*	*	*	*	*	*	*	*	*ij	*	*
8AA/L	6 4	.	16ff#\LL	.	16aa\LL	.	4A\	glo-	4ff#\	glo-	4f#\	4a\
.	.	.	16ff#\	.	16aa\	.	.	.	.	.	.	.
8AA/	.	.	16ff#\	.	16ff#\	.	.	.	.	.	.	.
.	.	.	16ff#\	.	16ff#\JJ	.	.	.	.	.	.	.
8AA/	.	.	16ff#\	.	16dd\LL	.	8A\	-ri-	8ff#\	-ri-	4d\	4f#\
.	.	.	16ff#\	.	16dd\	.	.	.	.	.	.	.
8AA/J	.	.	16ff#\	.	16a\	.	8A\	-a	8ff#\	-a	.	.
*	*	*	*	*	*	*	*	*	*	*Xij	*	*
.	.	.	16ff#\JJ	.	16a\JJ	.	.	.	.	.	.	.
!	!	!	!LO:LB:g=original	!	!	!	!	!	!	!	!	!
=101	=101	=101	=101	=101	=101	=101	=101	=101	=101	=101	=101	=101
8AA/L	7	.	16ee\LL	.	16gg\LL	.	4A\	De-	4gg\	De-	4e\	4g\
.	.	.	16ee\	.	16gg\	.	.	.	.	.	.	.
8AA/	.	.	16ee\	.	16ee\	.	.	.	.	.	.	.
.	.	.	16ee\	.	16ee\JJ	.	.	.	.	.	.	.
8AA/	.	.	16ee\	.	16cc#\LL	.	4A\	-i	4gg\	-i	4G/	4e\
.	.	.	16ee\	.	16cc#\	.	.	.	.	.	.	.
8AA/J	.	.	16ee\	.	16a\	.	.	.	.	.	.	.
.	.	.	16ee\JJ	.	16a\JJ	.	.	.	.	.	.	.
*Xtremolo	*	*	*Xtremolo	*	*	*	*	*	*	*	*	*
=102	=102	=102	=102	=102	=102	=102	=102	=102	=102	=102	=102	=102
8D\L	.	.	4dd\	.	8ff#\L	.	8d\	pa-	8ff#\	Pa-	4d\	4f#\
8F#\	.	.	.	.	8dd\	.	8F#\	-tris	8dd\	-tris	.	.
8G\	.	.	4cc#\	.	8ee\	.	8G\L	A-	4ee\	a-	4G/	4e\
8A\J	.	.	.	.	8cc#\J	.	8A\J	.	.	.	.	.
!	!	!	!	!	!	!	!	!	!LO:LB:g=original	!	!	!
=103	=103	=103	=103	=103	=103	=103	=103	=103	=103	=103	=103	=103
4D\	.	.	4dd\	.	4dd\	.	4D\	-men	8dd\	-men	4F#/	4d\
.	.	.	.	.	.	.	.	.	8r	.	.	.
4r	.	.	8r	.	8r	.	8r	.	8r	.	4r	4r
.	.	.	8a/	.	8a/	p	8G\	in	8a\	in	.	.
=104	=104	=104	=104	=104	=104	=104	=104	=104	=104	=104	=104	=104
!	!	!	!	!LO:DY:rj	!	!	!	!	!	!	!	!
8AA/L	7	.	16ee\LL	p	16gg\LL	.	4G\	glo-	4ee\	glo-	4e\	4g\
.	.	.	16ee\	.	16gg\	.	.	.	.	.	.	.
8AA/	.	.	16ee\	.	16ee\	.	.	.	.	.	.	.
.	.	.	16ee\JJ	.	16ee\JJ	.	.	.	.	.	.	.
*	*	*	*tremolo	*	*	*	*	*	*	*	*	*
8AA/	.	.	16ee\LL	.	16cc#\LL	.	8G\	-ri-	8ee\	-ri-	4A/	4e\
.	.	.	16ee\	.	16cc#\	.	.	.	.	.	.	.
8AA/J	.	.	16ee\	.	16a\	.	8G\	-a	8ee\	-a	.	.
.	.	.	16ee\JJ	.	16a\JJ	.	.	.	.	.	.	.
!	!	!	!	!	!LO:LB:g=original	!	!	!	!	!	!	!
=105	=105	=105	=105	=105	=105	=105	=105	=105	=105	=105	=105	=105
*tremolo	*	*	*	*	*	*	*	*	*	*ij	*	*
8AA/L	.	.	16ff#\LL	.	16aa\LL	.	4A\	glo-	4ff#\	glo-	4f#\	4a\
.	.	.	16ff#\	.	16aa\	.	.	.	.	.	.	.
8AA/	.	.	16ff#\	.	16ff#\	.	.	.	.	.	.	.
.	.	.	16ff#\	.	16ff#\JJ	.	.	.	.	.	.	.
8AA/	.	.	16ff#\	.	16dd\LL	.	8A\	-ri-	8ff#\	-ri-	4d\	4f#\
.	.	.	16ff#\	.	16dd\	.	.	.	.	.	.	.
8AA/J	.	.	16ff#\	.	16a\	.	8A\	-a	8ff#\	-a	.	.
*	*	*	*	*	*	*	*	*	*	*Xij	*	*
.	.	.	16ff#\JJ	.	16a\JJ	.	.	.	.	.	.	.
*	*	*	*Xtremolo	*	*	*	*	*	*	*	*	*
!	!	!	!	!	!	!	!	!	!	!	!LO:LB:g=original	!LO:LB:g=original
=106	=106	=106	=106	=106	=106	=106	=106	=106	=106	=106	=106	=106
8AA/L	.	.	16ee\LL	.	16gg\LL	.	4A\	De-	4gg\	De-	4e\	4g\
.	.	.	16ee\	.	16gg\	.	.	.	.	.	.	.
8AA/	.	.	16ee\	.	16ee\	.	.	.	.	.	.	.
.	.	.	16ee\JJ	.	16ee\JJ	.	.	.	.	.	.	.
*	*	*	*tremolo	*	*	*	*	*	*	*	*	*
8AA/	.	.	16ee\LL	.	16cc#\LL	.	4A\	-i	4gg\	-i	4G/	4e\
.	.	.	16ee\	.	16cc#\	.	.	.	.	.	.	.
8AA/J	.	.	16ee\	.	16a\	.	.	.	.	.	.	.
.	.	.	16ee\JJ	.	16a\JJ	.	.	.	.	.	.	.
*Xtremolo	*	*	*Xtremolo	*	*	*	*	*	*	*	*	*
=107	=107	=107	=107	=107	=107	=107	=107	=107	=107	=107	=107	=107
8D\L	.	.	4dd\	.	8ff#\L	f	8d\	Pa-	8ff#\	Pa-	4d\	4f#\
8F#\	.	.	.	.	8dd\	.	8F#\	-tris	8dd\	-tri	.	.
8G\	.	.	4cc#\	.	8ee\	.	8G\L	a-	4ee\	a-	4G/	4e\
8A\J	.	.	.	.	8cc#\J	.	8A\J	.	.	.	.	.
=108	=108	=108	=108	=108	=108	=108	=108	=108	=108	=108	=108	=108
4d\	.	.	4dd\	.	4dd\	.	4d\	-men	4dd\	-men	4F#/	4d\
4A\	.	.	4ee\	.	4ee\	.	4A\	a-	4ee\	a-	4A/	4e\
=109	=109	=109	=109	=109	=109	=109	=109	=109	=109	=109	=109	=109
4D\	.	.	4ff# 4a 4d/	.	4ff# 4a 4d/	.	4D/	-men	4ff#\	-men	4d\	4f#\
4r	.	.	4r	.	4r	.	4r	.	4r	.	4r	4r
==	==	==	==	==	==	==	==	==	==	==	==	==
*-	*-	*-	*-	*-	*-	*-	*-	*-	*-	*-	*-	*-
!!!system-decoration: [g1][g2][g3]s7
!!!RDF**dynam: p = "pia"
!!!RDF**dynam: f = "for"
!!!AIN: 3 empty 1 organ 2 violn 1 vox
!!!ENC: Zofia Niedbalska
!!!END: 2020-12-04
!!!ENC: Andrzej Gręziak
!!!END: 2020-05-12
!!!RDF**kern: | = vertical stroke
